!!!!SEGMENT: pl-wtm--r-1581--002_stefani-jozef--benedictus.krn
!!!cenid: 18xx:2336
!!!COM: Stefani, Józef
!!!COM-rismID: pe30024097
!!!CDT: 1800/04/16-1876/03/19
!!!CNT: Polish
!!!OTL: Benedictus
!!!PDT:
!!!AGN: Secular
!!!YEC: Copyright 2022 Narodowy Instytut Fryderyka Chopina (https://polishscores.org)
!!!YEM: License CC-BY-4.0 (https://creativecommons.org/licenses/by/4.0)
!!!SMS-siglum: PL-Wtm
!!!SMS-shelfmark: R 1581
!!!SMS-shelfwork: 002 W
!!!SMS-variant:
!!!SMS-altvar:
!!!NIFC-rismSourceID: 1001115577
!!!NIFC-rismChildID: 1001115582
!!!NIFC-islandoraID: pl-wtm:27277
!!!URL-pdf-islandora: https://repozytorium.nifc.pl/islandora/object/pl-wtm%3A27277/datastream/PDF/view
!!!URL-scan: https://polish.musicsources.pl/pl/lokalizacje/galeria/rekopisy/6377 @EN{Scan on Polish Music Sources Website} @PL{Skany w portalu Dziedzictwo Muzyki Polskiej w otwartym dostępie}
!!!IIIF:
!!!ONB-nifc:
!!!OMD: Andantino.
!!!system-decoration: ({s1,s2,s3,s4,s5},{g1},{<g2>,s10},{<g3>,s13,s14},{s15,s16})
!!!AIN: 1 cbass 1 cello 1 clars 1 cor 5 empty 1 fagot 1 flt 1 oboe 1 tenor 2 tromt 1 viola
!!!key:
**kern	**dynam	**kern	**dynam	**kern	**text	**kern	**text	**dynam	**kern	**text	**dynam	**kern	**text	**dynam	**kern	**dynam	**kern	**dynam	**kern	**dynam	**kern	**kern	**dynam	**kern	**dynam	**kern	**dynam	**kern	**dynam	**kern	**dynam	**kern	**dynam
*	*	*	*	*	*	*	*	*	*group3	*	*	*group3	*	*	*	*	*group2	*	*group2	*	*group1	*group1	*	*	*	*	*	*	*	*	*	*	*
*part16	*	*part15	*	*part14	*	*part13	*	*	*part12	*	*	*part11	*	*	*part10	*	*part9	*	*part8	*	*part7	*part6	*	*part5	*	*part4	*	*part3	*	*part2	*	*part1	*
*staff16	*	*staff15	*	*staff14	*	*staff13	*	*	*staff12	*	*	*staff11	*	*	*staff10	*	*staff9	*	*staff8	*	*staff7	*staff6	*	*staff5	*	*staff4	*	*staff3	*	*staff2	*	*staff1	*
*	*	*	*	*	*	*	*	*	*""Soprani	*	*	*""Soprani	*	*	*	*	*""Violini	*	*""Violini	*	*	*	*	*	*	*	*	*	*	*	*	*	*
*Icbass	*	*Icello	*	*Iempty	*	*Itenor	*	*	*Iempty	*	*	*Iempty	*	*	*Iviola	*	*Iempty	*	*Iempty	*	*Itromt	*Itromt	*	*Ifagot	*	*Icor	*	*Iclars	*	*Ioboe	*	*Iflt	*
*I"C:Baſsi	*	*I"Violoncelli	*	*I"Baſso	*	*I"Tenore	*	*	*	*	*	*	*	*	*I"Viole	*	*	*	*	*	*I"Tromboni	*I"Tromboni	*	*I"Fagotti	*	*I"Corni in Es	*	*I"Clarinetti in B	*	*I"Oboe	*	*I"Flauto	*
*clefF4	*	*clefF4	*	*clefF4	*	*clefC4	*	*	*clefG2	*	*	*clefG2	*	*	*clefC3	*	*clefG2	*	*clefG2	*	*clefF4	*clefC4	*	*clefF4	*	*clefG2	*	*clefG2	*	*clefG2	*	*clefG2	*
*ITrd0c0	*	*	*	*	*	*	*	*	*	*	*	*	*	*	*	*	*	*	*	*	*	*	*	*	*	*ITrd5c9	*	*ITrd1c2	*	*	*	*	*
*k[b-e-a-d-]	*	*k[b-e-a-d-]	*	*k[b-e-a-d-]	*	*k[b-e-a-d-]	*	*	*k[b-e-a-d-]	*	*	*k[b-e-a-d-]	*	*	*k[b-e-a-d-]	*	*k[b-e-a-d-]	*	*k[b-e-a-d-]	*	*k[b-e-a-d-]	*k[b-e-a-d-]	*	*k[b-e-a-d-]	*	*k[b-e-a-d-]	*	*k[b-e-a-d-]	*	*k[b-e-a-d-]	*	*k[b-e-a-d-]	*
*A-:	*	*A-:	*	*A-:	*	*A-:	*	*	*A-:	*	*	*A-:	*	*	*A-:	*	*A-:	*	*A-:	*	*A-:	*A-:	*	*A-:	*	*A-:	*	*A-:	*	*A-:	*	*A-:	*
*M4/4	*	*M4/4	*	*M4/4	*	*M4/4	*	*	*M4/4	*	*	*M4/4	*	*	*M4/4	*	*M4/4	*	*M4/4	*	*M4/4	*M4/4	*	*M4/4	*	*M4/4	*	*M4/4	*	*M4/4	*	*M4/4	*
*met(c)	*	*met(c)	*	*met(c)	*	*met(c)	*	*	*met(c)	*	*	*met(c)	*	*	*met(c)	*	*met(c)	*	*met(c)	*	*met(c)	*met(c)	*	*met(c)	*	*met(c)	*	*met(c)	*	*met(c)	*	*met(c)	*
=1	=1	=1	=1	=1	=1	=1	=1	=1	=1	=1	=1	=1	=1	=1	=1	=1	=1	=1	=1	=1	=1	=1	=1	=1	=1	=1	=1	=1	=1	=1	=1	=1	=1
*	*	*	*	*	*	*	*	*	*	*	*	*	*	*	*	*	*	*	*	*	*	*	*	*	*	*	*	*^	*	*	*	*	*
*all\right	*	*all\right	*	*all\right	*	*all\right	*	*	*all\right	*	*	*all\right	*	*	*all\right	*	*all\right	*	*all\right	*	*all\right	*all\right	*	*all\right	*	*all\right	*	*all\right	*	*	*all\right	*	*all\right	*
1r	.	1ryy	.	1r	.	1r	.	.	1r	.	.	1r	.	.	1r	.	1r	.	1r	.	1r	1r	.	2r	.	2.e-/ 2.E-/	.	2r	2ryy	.	1r	.	1r	.
.	.	.	.	.	.	.	.	.	.	.	.	.	.	.	.	.	.	.	.	.	.	.	.	4r	.	.	.	4r	4ryy	.	.	.	.	.
.	.	.	.	.	.	.	.	.	.	.	.	.	.	.	.	.	.	.	.	.	.	.	.	4d-\ 4E-\	.	4e-/ 4E-/	.	(4g/	4e-\	.	.	.	.	.
=2	=2	=2	=2	=2	=2	=2	=2	=2	=2	=2	=2	=2	=2	=2	=2	=2	=2	=2	=2	=2	=2	=2	=2	=2	=2	=2	=2	=2	=2	=2	=2	=2	=2	=2
*	*	*	*	*	*	*	*	*	*	*	*	*	*	*	*	*	*	*	*	*	*	*	*	*^	*	*	*	*	*	*	*	*	*	*
*	*	*	*	*	*	*	*	*	*	*	*	*	*	*	*	*	*	*	*	*	*	*	*	*	*	*	*	*	*	*2\right	*	*	*	*	*
1ryy	.	1ryyyy	.	1ryy	.	1ryy	.	.	1ryy	.	.	1ryy	.	.	1ryy	.	1ryy	.	1ryy	.	1r	1r	.	(4c/	1E-\	.	[1e-/ [1E-/	.	4a-/	2.e-\	.	1r	.	1r	.
.	.	.	.	.	.	.	.	.	.	.	.	.	.	.	.	.	.	.	.	.	.	.	.	4d-/	.	.	.	.	4g/	.	.	.	.	.	.
.	.	.	.	.	.	.	.	.	.	.	.	.	.	.	.	.	.	.	.	.	.	.	.	4c/	.	.	.	.	4a-/	.	.	.	.	.	.
.	.	.	.	.	.	.	.	.	.	.	.	.	.	.	.	.	.	.	.	.	.	.	.	4A-/)	.	.	.	.	4cc/)	4a-\	.	.	.	.	.
*	*	*	*	*	*	*	*	*	*	*	*	*	*	*	*	*	*	*	*	*	*	*	*	*v	*v	*	*	*	*	*	*	*	*	*	*
=3	=3	=3	=3	=3	=3	=3	=3	=3	=3	=3	=3	=3	=3	=3	=3	=3	=3	=3	=3	=3	=3	=3	=3	=3	=3	=3	=3	=3	=3	=3	=3	=3	=3	=3
1ryy	.	1ryyyy	.	1ryy	.	1ryy	.	.	1ryy	.	.	1ryy	.	.	1ryy	.	1ryy	.	1ryy	.	1r	1r	.	4B-\ 4E-\	.	4e-/] 4E-/]	.	4b-/	4g\	.	2r	.	2r	.
.	.	.	.	.	.	.	.	.	.	.	.	.	.	.	.	.	.	.	.	.	.	.	.	4r	.	2e-/ 2E-/	.	4r	4ryy	.	.	.	.	.
.	.	.	.	.	.	.	.	.	.	.	.	.	.	.	.	.	.	.	.	.	.	.	.	4r	.	.	.	4r	4ryy	.	4r	.	4r	.
.	.	.	.	.	.	.	.	.	.	.	.	.	.	.	.	.	.	.	.	.	.	.	.	4d-\ 4E-\	.	4e-/ 4E-/	.	(4g/	4e-\	.	4ee-\	.	(4gg\	.
=4	=4	=4	=4	=4	=4	=4	=4	=4	=4	=4	=4	=4	=4	=4	=4	=4	=4	=4	=4	=4	=4	=4	=4	=4	=4	=4	=4	=4	=4	=4	=4	=4	=4	=4
*	*	*	*	*	*	*	*	*	*	*	*	*	*	*	*	*	*	*	*	*	*	*	*	*^	*	*	*	*	*	*	*	*	*	*
*	*	*	*	*	*	*	*	*	*	*	*	*	*	*	*	*	*	*	*	*	*	*	*	*	*	*	*	*	*	*	*	*2\right	*	*	*
1ryy	.	1ryyyy	.	1ryy	.	1ryy	.	.	1ryy	.	.	1ryy	.	.	1ryy	.	1ryy	.	1ryy	.	1r	1r	.	(4c/	1E-\	.	1e-/ 1E-/	.	4a-/	2.e-\	.	(2.ee-\	.	4aa-\	.
.	.	.	.	.	.	.	.	.	.	.	.	.	.	.	.	.	.	.	.	.	.	.	.	4d-/	.	.	.	.	4g/	.	.	.	.	4gg\	.
.	.	.	.	.	.	.	.	.	.	.	.	.	.	.	.	.	.	.	.	.	.	.	.	4c/	.	.	.	.	4a-/	.	.	.	.	4aa-\	.
.	.	.	.	.	.	.	.	.	.	.	.	.	.	.	.	.	.	.	.	.	.	.	.	4A-/	.	.	.	.	4cc/	4a-\	.	4aa-\	.	4ccc\	.
*	*	*	*	*	*	*	*	*	*	*	*	*	*	*	*	*	*	*	*	*	*	*	*	*v	*v	*	*	*	*	*	*	*	*	*	*
!!LO:PB:g=original
=5	=5	=5	=5	=5	=5	=5	=5	=5	=5	=5	=5	=5	=5	=5	=5	=5	=5	=5	=5	=5	=5	=5	=5	=5	=5	=5	=5	=5	=5	=5	=5	=5	=5	=5
*	*	*	*	*	*	*	*	*	*	*	*	*	*	*	*	*	*	*	*	*	*	*^	*	*	*	*	*	*	*	*	*	*	*	*
!	!LO:DY:rj	!	!LO:DY:rj	!	!	!	!	!	!	!	!	!	!	!	!	!LO:DY:rj	!	!	!	!LO:DY:rj	!	!	!	!	!LO:TX:t=P:problem=brak zakończenia łuku	!	!	!	!LO:TX:t=P:problem=brak zakończenia łuku	!	!	!LO:TX:t=P:problem=brak zakończenia łuku	!	!LO:TX:t=P:problem=brak zakończenia łuku	!
4E-\	f	4E-\yy	fy	1r	.	1r	.	.	1r	.	.	1r	.	.	4g\ 4B-\ 4E-\	f	4b-/ 4e-/	.	4ee-\ 4g\	f	4E-\	4B-/	4G\	.	4B-\ 4E-\)	.	4e-/ 4E-/	.	4ee-/)	4g\	.	4gg\)	.	4eee-\)	.
(4E-\	.	(y4E-\yy	.	.	.	.	.	.	.	.	.	.	.	.	(4e-\	.	4r	.	4r	.	4r	4r	4ryy	.	4E-\	.	4r	.	4r	4ryy	.	4r	.	4r	.
8F\L	.	8F\Lyy	.	.	.	.	.	.	.	.	.	.	.	.	8f\L	.	2r	.	2r	.	2r	2r	2ryy	.	(8F/L	.	2r	.	2r	2ryy	.	2r	.	2r	.
8E-\	.	8E-\yy	.	.	.	.	.	.	.	.	.	.	.	.	8e-\	.	.	.	.	.	.	.	.	.	8E-/	.	.	.	.	.	.	.	.	.	.
8D-\	.	8D-\yy	.	.	.	.	.	.	.	.	.	.	.	.	8d-\	.	.	.	.	.	.	.	.	.	8D-/	.	.	.	.	.	.	.	.	.	.
8BB-\J	.	8BB-\Jyy	.	.	.	.	.	.	.	.	.	.	.	.	8B-\J	.	.	.	.	.	.	.	.	.	8BB-/J)	.	.	.	.	.	.	.	.	.	.
*	*	*	*	*	*	*	*	*	*	*	*	*	*	*	*	*	*	*	*	*	*	*v	*v	*	*	*	*	*	*v	*v	*	*	*	*	*
=6	=6	=6	=6	=6	=6	=6	=6	=6	=6	=6	=6	=6	=6	=6	=6	=6	=6	=6	=6	=6	=6	=6	=6	=6	=6	=6	=6	=6	=6	=6	=6	=6	=6
*	*	*	*	*	*	*	*	*	*	*	*	*	*	*	*2\right	*	*	*	*	*	*	*	*	*	*	*	*	*	*	*	*	*	*
!	!LO:DY:rj	!	!LO:DY:rj	!	!	!	!	!	!	!	!	!LO:TX:a:i:t=Solo	!	!	!	!	!	!	!	!LO:DY:rj	!	!	!	!	!	!	!	!	!	!	!	!	!
4AA-/)	p	4AA-/)yy	py	1ryy	.	1ryy	.	.	1ryy	.	.	(2a-/	Be-	.	2c\)	.	(2e-/	.	(>2a-/	p	1r	1r	.	1r	.	1r	.	1r	.	1r	.	1r	.
4A-\	.	4A-\yy	.	.	.	.	.	.	.	.	.	.	.	.	.	.	.	.	.	.	.	.	.	.	.	.	.	.	.	.	.	.	.
4.E-\	.	4.E-\yy	.	.	.	.	.	.	.	.	.	4.b-/)	.	.	2e-\	.	4.g/)	.	4.b-/)	.	.	.	.	.	.	.	.	.	.	.	.	.	.
8AA-/	.	8AA-/yy	.	.	.	.	.	.	.	.	.	8cc/	-ne-	.	.	.	8a-/	.	8cc/	.	.	.	.	.	.	.	.	.	.	.	.	.	.
=7	=7	=7	=7	=7	=7	=7	=7	=7	=7	=7	=7	=7	=7	=7	=7	=7	=7	=7	=7	=7	=7	=7	=7	=7	=7	=7	=7	=7	=7	=7	=7	=7	=7
*	*	*	*	*	*	*	*	*	*	*	*	*	*	*	*	*	*	*	*	*	*	*	*	*^	*	*	*	*	*	*	*	*	*
*2\right	*	*2\right	*	*	*	*	*	*	*	*	*	*	*	*	*	*	*	*	*	*	*	*	*	*2\right	*	*	*	*	*	*	*	*	*2\right	*
!	!	!	!	!	!	!	!	!	!	!	!	!	!	!	!	!	!	!	!	!	!	!	!	!	!	!LO:DY:rj	!	!	!	!LO:DY:rj	!	!	!	!LO:DY:rj
(2F\	.	(y2F\yy	.	1ryy	.	1ryy	.	.	1ryy	.	.	2a-/	-di-	.	(2f\	.	(2f/	.	(2a-/	.	1r	1r	.	(2f\	1r	p	1r	.	(2a-/ (2f/	p	(2ff\	.	(2aa-\	p
4.E-\)	.	4.E-\)yy	.	.	.	.	.	.	.	.	.	4.b-/	-ctus	.	4.e-\)	.	4.g/)	.	4.b-/)	.	.	.	.	4.e-\)	.	.	.	.	4.b-/ 4.g/))	.	4.gg\)	.	4.bb-\)	.
8E-\	.	8E-\yy	.	.	.	.	.	.	.	.	.	8b-/	qui	.	8e-\	.	8g/	.	8b-/	.	.	.	.	8e-\	.	.	.	.	8b-/ 8g/	.	8gg\	.	8bb-\	.
=8	=8	=8	=8	=8	=8	=8	=8	=8	=8	=8	=8	=8	=8	=8	=8	=8	=8	=8	=8	=8	=8	=8	=8	=8	=8	=8	=8	=8	=8	=8	=8	=8	=8	=8
*	*	*	*	*	*	*	*	*	*	*	*	*	*	*	*	*	*	*	*	*	*	*	*	*	*	*	*^	*	*^	*	*	*	*	*
*	*	*	*	*	*	*	*	*	*	*	*	*2\right	*	*	*	*	*	*	*2\right	*	*	*	*	*	*	*	*	*2\right	*	*	*	*	*	*	*	*
!LO:TX:t=P:mixedbeam:problem	!	!LO:TX:t=P:problem=mixedbeam	!	!	!	!	!	!	!	!	!	!	!	!	!	!	!	!	!	!	!	!	!	!	!	!	!	!	!	!	!	!	!	!	!	!
8AA-/L	.	8AA-/Lyy	.	1ryy	.	1ryy	.	.	1ryy	.	.	2cc\	ve-	.	2.e-\	.	2.a-/	.	2.cc\	.	1r	1r	.	2.A-\	1r	.	2.e-/	2.e-\	.	2.cc/	2.a-\	.	2.aa-\	.	2.ccc\	.
8A-\	.	8A-\yy	.	.	.	.	.	.	.	.	.	.	.	.	.	.	.	.	.	.	.	.	.	.	.	.	.	.	.	.	.	.	.	.	.	.
8E-\	.	8E-\yy	.	.	.	.	.	.	.	.	.	.	.	.	.	.	.	.	.	.	.	.	.	.	.	.	.	.	.	.	.	.	.	.	.	.
8C\J	.	8C\Jyy	.	.	.	.	.	.	.	.	.	.	.	.	.	.	.	.	.	.	.	.	.	.	.	.	.	.	.	.	.	.	.	.	.	.
4AA-/	.	4AA-/yy	.	.	.	.	.	.	.	.	.	4cc\	-nit	.	.	.	.	.	.	.	.	.	.	.	.	.	.	.	.	.	.	.	.	.	.	.
4C/	.	4C/yy	.	.	.	.	.	.	.	.	.	4ee-\	in	.	4e-\	.	4a-/	.	4ee-\	.	.	.	.	4r	.	.	4r	4ryy	.	4r	4ryy	.	4r	.	4r	.
*	*	*	*	*	*	*	*	*	*	*	*	*	*	*	*	*	*	*	*	*	*	*	*	*v	*v	*	*	*	*	*v	*v	*	*	*	*	*
*	*	*	*	*	*	*	*	*	*	*	*	*	*	*	*	*	*	*	*	*	*	*	*	*	*	*v	*v	*	*	*	*	*	*	*
=9	=9	=9	=9	=9	=9	=9	=9	=9	=9	=9	=9	=9	=9	=9	=9	=9	=9	=9	=9	=9	=9	=9	=9	=9	=9	=9	=9	=9	=9	=9	=9	=9	=9
4D-\	.	4D-\yy	.	1ryy	.	1ryy	.	.	1ryy	.	.	(4.ee-\	no-	.	2f\	.	(2f/	.	(4.ee-\	.	1r	1r	.	1r	.	1r	.	1r	.	1r	.	1r	.
4BB-/	.	4BB-/yy	.	.	.	.	.	.	.	.	.	.	.	.	.	.	.	.	.	.	.	.	.	.	.	.	.	.	.	.	.	.	.
.	.	.	.	.	.	.	.	.	.	.	.	8dd-\)	.	.	.	.	.	.	8dd-\	.	.	.	.	.	.	.	.	.	.	.	.	.	.
4E-\	.	4E-\yy	.	.	.	.	.	.	.	.	.	4cc\	-mi-	.	2e-\	.	4a-/)	.	4cc\)	.	.	.	.	.	.	.	.	.	.	.	.	.	.
4EE-/	.	4EE-/yy	.	.	.	.	.	.	.	.	.	4b-\	-ne	.	.	.	4g/	.	4b-\	.	.	.	.	.	.	.	.	.	.	.	.	.	.
!!LO:PB:g=original
=10	=10	=10	=10	=10	=10	=10	=10	=10	=10	=10	=10	=10	=10	=10	=10	=10	=10	=10	=10	=10	=10	=10	=10	=10	=10	=10	=10	=10	=10	=10	=10	=10	=10
(2E-\	.	(y2E-\yy	.	1r	.	1r	.	.	1r	.	.	4.b-\	Do-	.	2.e-\	.	(2g/	.	(4.b-\	.	1r	1r	.	1r	.	1r	.	1r	.	1r	.	1r	.
.	.	.	.	.	.	.	.	.	.	.	.	8bn\	-mi-	.	.	.	.	.	8bn\	.	.	.	.	.	.	.	.	.	.	.	.	.	.
4AA-/)	.	4AA-/)yy	.	.	.	.	.	.	.	.	.	4cc\	-ni	.	.	.	4a-/)	.	4cc\)	.	.	.	.	.	.	.	.	.	.	.	.	.	.
4AA-/	.	4AA-/yy	.	.	.	.	.	.	.	.	.	4cc\	in	.	4e-\	.	4a-/	.	4cc\	.	.	.	.	.	.	.	.	.	.	.	.	.	.
=11	=11	=11	=11	=11	=11	=11	=11	=11	=11	=11	=11	=11	=11	=11	=11	=11	=11	=11	=11	=11	=11	=11	=11	=11	=11	=11	=11	=11	=11	=11	=11	=11	=11
*	*	*	*	*	*	*	*	*	*	*	*	*	*	*	*	*	*	*	*	*	*	*	*	*	*	*^	*	*	*	*	*	*	*
!	!	!	!	!	!	!	!	!	!	!	!	!	!	!	!	!	!	!	!	!	!	!	!	!	!	!LO:TX:t=P:problem=partia Corni  w 11 i 12 takcie została napisana w partii Clarinetti	!	!LO:DY:rj	!	!	!	!	!	!
4BB-/	.	4BB-/yy	.	1r	.	1r	.	.	1r	.	.	8b-\	no-	.	4e-\	.	4g/	.	4b-\	.	1r	1r	.	1r	.	2g/	2e-\	p	1r	.	1r	.	1r	.
.	.	.	.	.	.	.	.	.	.	.	.	4ee-\	-mi-	.	.	.	.	.	.	.	.	.	.	.	.	.	.	.	.	.	.	.	.	.
4r	.	4ryy	.	.	.	.	.	.	.	.	.	.	.	.	4B-/	.	4e-/	.	4g/	.	.	.	.	.	.	.	.	.	.	.	.	.	.	.
.	.	.	.	.	.	.	.	.	.	.	.	8g/	-ne	.	.	.	.	.	.	.	.	.	.	.	.	.	.	.	.	.	.	.	.	.
4BB-/	.	4BB-/yy	.	.	.	.	.	.	.	.	.	(8cc/L	Do-	.	4r	.	4r	.	4r	.	.	.	.	.	.	2f/ 2B-/	2ryy	.	.	.	.	.	.	.
.	.	.	.	.	.	.	.	.	.	.	.	8b-/J)	.	.	.	.	.	.	.	.	.	.	.	.	.	.	.	.	.	.	.	.	.	.
4r	.	4ryy	.	.	.	.	.	.	.	.	.	(8a-/L	-mi-	.	4A-/ 4F/	.	4B-/	.	4dn/	.	.	.	.	.	.	.	.	.	.	.	.	.	.	.
.	.	.	.	.	.	.	.	.	.	.	.	8f/J)	.	.	.	.	.	.	.	.	.	.	.	.	.	.	.	.	.	.	.	.	.	.
*	*	*	*	*	*	*	*	*	*	*	*	*	*	*	*	*	*	*	*	*	*	*	*	*	*	*v	*v	*	*	*	*	*	*	*
=12	=12	=12	=12	=12	=12	=12	=12	=12	=12	=12	=12	=12	=12	=12	=12	=12	=12	=12	=12	=12	=12	=12	=12	=12	=12	=12	=12	=12	=12	=12	=12	=12	=12
!	!	!	!	!	!	!	!	!	!	!	!	!	!	!	!	!	!	!	!	!	!	!	!	!LO:TX:t=P:problem=partia Fagotti w 12 takcie została napisana w partii Corni	!	!	!	!	!	!	!	!	!
4E-\	.	4E-\yy	.	1r	.	1r	.	.	1r	.	.	4e-/	-ni	.	4G/	.	4B-/	.	4e-/	.	4r	4r	.	4e-\ 4E-\	.	4e-/ 4G/	.	4r	.	4r	.	4r	.
!	!	!	!	!	!	!	!	!	!	!	!	!	!	!	!	!	!	!	!	!	!	!	!	!	!	!	!	!LO:TX:t=P:problem=partia clarinetti w 12 takcie została napisana w partii Fagotti	!	!	!	!	!
(4E-\	.	(y4E-\yy	.	.	.	.	.	.	.	.	.	4r	.	.	(4G/	.	(4B-/	.	(4e-/	.	(4E-\	(4e-\ 4G\	.	(4e-\ 4E-\	.	4r	.	(4g/ 4e-/	.	(4b-/	.	(4ee-\	.
4D-X\	.	4D-X\yy	.	.	.	.	.	.	.	.	.	2r	.	.	4A-/	.	4A-/	.	4f/	.	4D-\	4f\ 4A-\	.	4d-\ 4D-\	.	4r	.	4a-/ 4f/	.	4a-/	.	4ff\	.
4BB-/	.	4BB-/yy	.	.	.	.	.	.	.	.	.	.	.	.	4d-\)	.	4d-X/)	.	4g/	.	4BB-/)	4g\ 4d-X\)	.	4B-\ 4BB-\)	.	4e-/ 4E/	.	4g/ 4d-X/)	.	4dd-/)	.	4gg\)	.
=13	=13	=13	=13	=13	=13	=13	=13	=13	=13	=13	=13	=13	=13	=13	=13	=13	=13	=13	=13	=13	=13	=13	=13	=13	=13	=13	=13	=13	=13	=13	=13	=13	=13
!	!	!	!	!	!	!	!	!	!	!	!	!	!	!	!	!	!	!	!	!LO:HP:a	!	!	!	!	!	!	!	!	!	!	!	!	!
4AA-/)	<	4AA-/)yy	<	1r	.	1r	.	.	1r	.	.	(2a-/	Be-	.	2e-\	.	2c/	.	2a-/)	<	1r	1r	.	1r	.	1r	.	1r	.	1r	.	1r	.
4A-\	[[	4A-\yy	[[	.	.	.	.	.	.	.	.	.	.	.	.	.	.	.	.	.	.	.	.	.	.	.	.	.	.	.	.	.	.
!	!	!	!	!	!	!	!	!	!	!	!	!	!	!	!	!	!	!	!	!LO:HP:a	!	!	!	!	!	!	!	!	!	!	!	!	!
2F\	>]	2F\yy	>]	.	.	.	.	.	.	.	.	4.b-/)	.	.	2f\	.	2dn/	.	4.b-/	[ >	.	.	.	.	.	.	.	.	.	.	.	.	.
.	.	.	.	.	.	.	.	.	.	.	.	8a-/	-ne-	.	.	.	.	.	8a-/	]	.	.	.	.	.	.	.	.	.	.	.	.	.
=14	=14	=14	=14	=14	=14	=14	=14	=14	=14	=14	=14	=14	=14	=14	=14	=14	=14	=14	=14	=14	=14	=14	=14	=14	=14	=14	=14	=14	=14	=14	=14	=14	=14
4E-\	.	4E-\yy	.	1r	.	1r	.	.	1r	.	.	(8g/L	-di-	.	4e-\	.	4e-/	.	4g/	.	1r	1r	.	1r	.	1r	.	1r	.	1r	.	1r	.
.	.	.	.	.	.	.	.	.	.	.	.	8cc/J)	.	.	.	.	.	.	.	.	.	.	.	.	.	.	.	.	.	.	.	.	.
4r	.	4ryy	.	.	.	.	.	.	.	.	.	4.b-/	-ctus	.	4B-/	.	4e-/	.	4g/	.	.	.	.	.	.	.	.	.	.	.	.	.	.
4E-\	.	4E-\yy	.	.	.	.	.	.	.	.	.	.	.	.	4r	.	4r	.	4r	.	.	.	.	.	.	.	.	.	.	.	.	.	.
.	.	.	.	.	.	.	.	.	.	.	.	(8b-\L	Be-	.	.	.	.	.	.	.	.	.	.	.	.	.	.	.	.	.	.	.	.
4r	.	4ryy	.	.	.	.	.	.	.	.	.	8gg\J)	.	.	4B-/	.	4e-/	.	4g/	.	.	.	.	.	.	.	.	.	.	.	.	.	.
.	.	.	.	.	.	.	.	.	.	.	.	8ee-\	-ne	.	.	.	.	.	.	.	.	.	.	.	.	.	.	.	.	.	.	.	.
!!LO:PB:g=original
=15	=15	=15	=15	=15	=15	=15	=15	=15	=15	=15	=15	=15	=15	=15	=15	=15	=15	=15	=15	=15	=15	=15	=15	=15	=15	=15	=15	=15	=15	=15	=15	=15	=15
4F\	.	4F\yy	.	1r	.	1r	.	.	1r	.	.	4ee-\	di-	.	4r	.	4r	.	4r	.	1r	1r	.	1r	.	1r	.	1r	.	1r	.	1r	.
4r	.	4ryy	.	.	.	.	.	.	.	.	.	4.ddn\	-ctus	.	4B-/	.	4dn/	.	4a-/	.	.	.	.	.	.	.	.	.	.	.	.	.	.
4F\	.	4F\yy	.	.	.	.	.	.	.	.	.	.	.	.	4r	.	4r	.	4r	.	.	.	.	.	.	.	.	.	.	.	.	.	.
.	.	.	.	.	.	.	.	.	.	.	.	(8b-\L	Be-	.	.	.	.	.	.	.	.	.	.	.	.	.	.	.	.	.	.	.	.
4r	.	4ryy	.	.	.	.	.	.	.	.	.	8aa-\J)	.	.	4B-/	.	4d/	.	4a-/	.	.	.	.	.	.	.	.	.	.	.	.	.	.
.	.	.	.	.	.	.	.	.	.	.	.	8ff\	-ne	.	.	.	.	.	.	.	.	.	.	.	.	.	.	.	.	.	.	.	.
=16	=16	=16	=16	=16	=16	=16	=16	=16	=16	=16	=16	=16	=16	=16	=16	=16	=16	=16	=16	=16	=16	=16	=16	=16	=16	=16	=16	=16	=16	=16	=16	=16	=16
4G\	.	4G\yy	.	1ryy	.	1ryy	.	.	1ryy	.	.	4ff\	di-	.	4r	.	4r	.	4r	.	1ryy	1ryy	.	1r	.	1r	.	1r	.	1r	.	1r	.
4r	.	4ryy	.	.	.	.	.	.	.	.	.	2ee-\	-ctus,	.	4B-/	.	4e-/	.	4b-/	.	.	.	.	.	.	.	.	.	.	.	.	.	.
4G\	.	4G\yy	.	.	.	.	.	.	.	.	.	.	.	.	4r	.	4r	.	4r	.	.	.	.	.	.	.	.	.	.	.	.	.	.
4r	.	4ryy	.	.	.	.	.	.	.	.	.	(8ee-\L	qui	.	4B-/	.	4e-/	.	4b-/	.	.	.	.	.	.	.	.	.	.	.	.	.	.
.	.	.	.	.	.	.	.	.	.	.	.	8b-\J)	.	.	.	.	.	.	.	.	.	.	.	.	.	.	.	.	.	.	.	.	.
=17	=17	=17	=17	=17	=17	=17	=17	=17	=17	=17	=17	=17	=17	=17	=17	=17	=17	=17	=17	=17	=17	=17	=17	=17	=17	=17	=17	=17	=17	=17	=17	=17	=17
4A-\	.	4A-\yy	.	1ryy	.	1ryy	.	.	1ryy	.	.	(8.ddn\L	ve-	.	4r	.	4r	.	4r	.	1ryy	1ryy	.	1r	.	1r	.	1r	.	1r	.	1r	.
.	.	.	.	.	.	.	.	.	.	.	.	16cc\Jk)	.	.	.	.	.	.	.	.	.	.	.	.	.	.	.	.	.	.	.	.	.
4r	.	4ryy	.	.	.	.	.	.	.	.	.	(16b-/LL	-nit	.	4c\	.	4e-/	.	4f/	.	.	.	.	.	.	.	.	.	.	.	.	.	.
.	.	.	.	.	.	.	.	.	.	.	.	16a-/JJ)	.	.	.	.	.	.	.	.	.	.	.	.	.	.	.	.	.	.	.	.	.
.	.	.	.	.	.	.	.	.	.	.	.	(16g/LL	in	.	.	.	.	.	.	.	.	.	.	.	.	.	.	.	.	.	.	.	.
.	.	.	.	.	.	.	.	.	.	.	.	16f/JJ)	.	.	.	.	.	.	.	.	.	.	.	.	.	.	.	.	.	.	.	.	.
8BB-/	.	8BB-/yy	.	.	.	.	.	.	.	.	.	4e-/	no-	.	8r	.	8r	.	8r	.	.	.	.	.	.	.	.	.	.	.	.	.	.
8r	.	8ryy	.	.	.	.	.	.	.	.	.	.	.	.	8B-/ 8G/	.	8e-/	.	8e-/	.	.	.	.	.	.	.	.	.	.	.	.	.	.
8BB-/	.	8BB-/yy	.	.	.	.	.	.	.	.	.	8.f/	-mi-	.	8r	.	8r	.	8r	.	.	.	.	.	.	.	.	.	.	.	.	.	.
8r	.	8ryy	.	.	.	.	.	.	.	.	.	.	.	.	8B-/	.	8dn/	.	8f/	.	.	.	.	.	.	.	.	.	.	.	.	.	.
.	.	.	.	.	.	.	.	.	.	.	.	16f/	-ne	.	.	.	.	.	.	.	.	.	.	.	.	.	.	.	.	.	.	.	.
=18	=18	=18	=18	=18	=18	=18	=18	=18	=18	=18	=18	=18	=18	=18	=18	=18	=18	=18	=18	=18	=18	=18	=18	=18	=18	=18	=18	=18	=18	=18	=18	=18	=18
*	*	*	*	*	*	*	*	*	*	*	*	*	*	*	*	*	*^	*	*	*	*	*	*	*^	*	*	*	*	*	*	*	*	*
!	!	!	!	!	!	!	!	!	!	!	!	!	!	!	!	!	!	!	!	!	!	!	!	!	!LO:TX:a:t=Fagotti	!	!	!LO:TX:a:t=Corni	!	!LO:TX:a:t=Clarinetti	!	!	!	!	!
2E-^<\	.	2E-^<\yy	.	1ryy	.	1ryy	.	.	1ryy	.	.	8.f#X/	Do-	.	4An/	.	2e-/	(>4c\	.	(4f#X^>/	.	1ryy	1ryy	.	(4An/	2E-^\	.	2e-/ 2E-/	.	4f#X/ 4c^/	.	1r	.	1r	.
.	.	.	.	.	.	.	.	.	.	.	.	16f#/	-mi-	.	.	.	.	.	.	.	.	.	.	.	.	.	.	.	.	.	.	.	.	.	.
.	.	.	.	.	.	.	.	.	.	.	.	4g/	-ni	.	4B-/	.	.	4B-\)	.	4g/)	.	.	.	.	4B-/)	.	.	.	.	4g/ 4B-/	.	.	.	.	.
4E-\	.	4E-\yy	.	.	.	.	.	.	.	.	.	8r	.	.	4r	.	4r	2ryy	.	4r	.	.	.	.	2r	2ryy	.	2r	.	2r	.	.	.	.	.
.	.	.	.	.	.	.	.	.	.	.	.	(32cc\LLL	Be-	.	.	.	.	.	.	.	.	.	.	.	.	.	.	.	.	.	.	.	.	.	.
.	.	.	.	.	.	.	.	.	.	.	.	32b-\	.	.	.	.	.	.	.	.	.	.	.	.	.	.	.	.	.	.	.	.	.	.	.
.	.	.	.	.	.	.	.	.	.	.	.	32an\	.	.	.	.	.	.	.	.	.	.	.	.	.	.	.	.	.	.	.	.	.	.	.
.	.	.	.	.	.	.	.	.	.	.	.	32b-\JJ	.	.	.	.	.	.	.	.	.	.	.	.	.	.	.	.	.	.	.	.	.	.	.
4r	.	4ryy	.	.	.	.	.	.	.	.	.	8.gg\J)	.	.	4B-/	.	4e-/	.	.	4g/	.	.	.	.	.	.	.	.	.	.	.	.	.	.	.
.	.	.	.	.	.	.	.	.	.	.	.	16ee-\	-ne-	.	.	.	.	.	.	.	.	.	.	.	.	.	.	.	.	.	.	.	.	.	.
*	*	*	*	*	*	*	*	*	*	*	*	*	*	*	*	*	*v	*v	*	*	*	*	*	*	*v	*v	*	*	*	*	*	*	*	*	*
!!LO:PB:g=original
=19	=19	=19	=19	=19	=19	=19	=19	=19	=19	=19	=19	=19	=19	=19	=19	=19	=19	=19	=19	=19	=19	=19	=19	=19	=19	=19	=19	=19	=19	=19	=19	=19	=19
4F\	.	4F\yy	.	1r	.	1r	.	.	1r	.	.	4ee-\	-di-	.	4r	.	4r	.	4r	.	1ryy	1ryy	.	1r	.	1r	.	1r	.	1r	.	1r	.
4r	.	4ryy	.	.	.	.	.	.	.	.	.	4.ddn\	-ctus	.	4B-/	.	4dn/	.	4a-/	.	.	.	.	.	.	.	.	.	.	.	.	.	.
4F\	.	4F\yy	.	.	.	.	.	.	.	.	.	.	.	.	4r	.	4r	.	4r	.	.	.	.	.	.	.	.	.	.	.	.	.	.
.	.	.	.	.	.	.	.	.	.	.	.	(32cc\LLL	Be-	.	.	.	.	.	.	.	.	.	.	.	.	.	.	.	.	.	.	.	.
.	.	.	.	.	.	.	.	.	.	.	.	32b-\	.	.	.	.	.	.	.	.	.	.	.	.	.	.	.	.	.	.	.	.	.
.	.	.	.	.	.	.	.	.	.	.	.	32an\	.	.	.	.	.	.	.	.	.	.	.	.	.	.	.	.	.	.	.	.	.
.	.	.	.	.	.	.	.	.	.	.	.	32b-\JJ	.	.	.	.	.	.	.	.	.	.	.	.	.	.	.	.	.	.	.	.	.
4r	.	4ryy	.	.	.	.	.	.	.	.	.	8.aa-X\J)	.	.	4B-/	.	4d/	.	4a-/	.	.	.	.	.	.	.	.	.	.	.	.	.	.
.	.	.	.	.	.	.	.	.	.	.	.	16ff\	-ne-	.	.	.	.	.	.	.	.	.	.	.	.	.	.	.	.	.	.	.	.
=20	=20	=20	=20	=20	=20	=20	=20	=20	=20	=20	=20	=20	=20	=20	=20	=20	=20	=20	=20	=20	=20	=20	=20	=20	=20	=20	=20	=20	=20	=20	=20	=20	=20
4G\	.	4G\yy	.	1ryy	.	1ryy	.	.	1ryy	.	.	4ff\	-di-	.	4r	.	4r	.	4r	.	1ryy	1ryy	.	1r	.	1r	.	1r	.	1r	.	1r	.
4r	.	4ryy	.	.	.	.	.	.	.	.	.	2ee-\	-ctus	.	2B-/	.	2e-/	.	2b-^/	.	.	.	.	.	.	.	.	.	.	.	.	.	.
4G\	.	4G\yy	.	.	.	.	.	.	.	.	.	.	.	.	.	.	.	.	.	.	.	.	.	.	.	.	.	.	.	.	.	.	.
4A-\	.	4A-\yy	.	.	.	.	.	.	.	.	.	4cc\	in	.	4c/ 4A-/	.	4e-/	.	4f/	.	.	.	.	.	.	.	.	.	.	.	.	.	.
=21	=21	=21	=21	=21	=21	=21	=21	=21	=21	=21	=21	=21	=21	=21	=21	=21	=21	=21	=21	=21	=21	=21	=21	=21	=21	=21	=21	=21	=21	=21	=21	=21	=21
4B-\	.	4B-\yy	.	1ryy	.	1ryy	.	.	1ryy	.	.	(8b-\L	no-	.	4r	.	4r	.	4r	.	1ryy	1ryy	.	1r	.	1r	.	1r	.	1r	.	1r	.
.	.	.	.	.	.	.	.	.	.	.	.	8ee-\J)	.	.	.	.	.	.	.	.	.	.	.	.	.	.	.	.	.	.	.	.	.
4r	.	4ryy	.	.	.	.	.	.	.	.	.	8gg\	-mi-	.	4B-/	.	4e-/	.	4g/	.	.	.	.	.	.	.	.	.	.	.	.	.	.
.	.	.	.	.	.	.	.	.	.	.	.	8ee-\	-ne	.	.	.	.	.	.	.	.	.	.	.	.	.	.	.	.	.	.	.	.
4BB-/	.	4BB-/yy	.	.	.	.	.	.	.	.	.	(8ee-\L	Do-	.	4r	.	4r	.	4r	.	.	.	.	.	.	.	.	.	.	.	.	.	.
.	.	.	.	.	.	.	.	.	.	.	.	8ddn\	.	.	.	.	.	.	.	.	.	.	.	.	.	.	.	.	.	.	.	.	.
4r	.	4ryy	.	.	.	.	.	.	.	.	.	8cc\J)	.	.	4B-/	.	4f/	.	4a-/	.	.	.	.	.	.	.	.	.	.	.	.	.	.
.	.	.	.	.	.	.	.	.	.	.	.	8dd\	-mi-	.	.	.	.	.	.	.	.	.	.	.	.	.	.	.	.	.	.	.	.
=22	=22	=22	=22	=22	=22	=22	=22	=22	=22	=22	=22	=22	=22	=22	=22	=22	=22	=22	=22	=22	=22	=22	=22	=22	=22	=22	=22	=22	=22	=22	=22	=22	=22
4C/	.	4C/yy	.	1ryy	.	1ryy	.	.	1ryy	.	.	4ee-\	-ni	.	4r	.	4r	.	4r	.	1ryy	1ryy	.	1r	.	1r	.	1r	.	1r	.	1r	.
4r	.	4ryy	.	.	.	.	.	.	.	.	.	4r	.	.	4c\	.	4e-/	.	4g/	.	.	.	.	.	.	.	.	.	.	.	.	.	.
4AA-/	.	4AA-/yy	.	.	.	.	.	.	.	.	.	2cc\	in	.	4r	.	4r	.	4r	.	.	.	.	.	.	.	.	.	.	.	.	.	.
4r	.	4ryy	.	.	.	.	.	.	.	.	.	.	.	.	4c\	.	4e-/	.	4f/	.	.	.	.	.	.	.	.	.	.	.	.	.	.
!!LO:PB:g=original
=23	=23	=23	=23	=23	=23	=23	=23	=23	=23	=23	=23	=23	=23	=23	=23	=23	=23	=23	=23	=23	=23	=23	=23	=23	=23	=23	=23	=23	=23	=23	=23	=23	=23
4BB-/	.	4BB-/yy	.	1r	.	1r	.	.	1r	.	.	(8b-\L	no-	.	4r	.	4r	.	4r	.	1r	1r	.	1r	.	1r	.	1r	.	1r	.	1r	.
.	.	.	.	.	.	.	.	.	.	.	.	8gg\J)	.	.	.	.	.	.	.	.	.	.	.	.	.	.	.	.	.	.	.	.	.
4r	.	4ryy	.	.	.	.	.	.	.	.	.	8ff\	-mi-	.	4B-/	.	4e-/	.	4g/	.	.	.	.	.	.	.	.	.	.	.	.	.	.
.	.	.	.	.	.	.	.	.	.	.	.	8ee-\	-ne	.	.	.	.	.	.	.	.	.	.	.	.	.	.	.	.	.	.	.	.
4BB-/	.	4BB-/yy	.	.	.	.	.	.	.	.	.	4bb-\	Do-	.	4r	.	4r	.	4r	.	.	.	.	.	.	.	.	.	.	.	.	.	.
4r	.	4ryy	.	.	.	.	.	.	.	.	.	4ddn\	-mi-	.	4B-/	.	4f/ 4dn/	.	4a-/	.	.	.	.	.	.	.	.	.	.	.	.	.	.
=24	=24	=24	=24	=24	=24	=24	=24	=24	=24	=24	=24	=24	=24	=24	=24	=24	=24	=24	=24	=24	=24	=24	=24	=24	=24	=24	=24	=24	=24	=24	=24	=24	=24
*	*	*	*	*	*	*	*	*	*	*	*	*	*	*	*	*	*	*	*	*	*	*	*	*	*	*	*	*^	*	*	*	*	*
4E-\	.	4E-\yy	.	1r	.	1r	.	.	1r	.	.	4ee-\	-ni	.	4B-/	.	4e-/	.	4g/	.	1r	1r	.	4r	.	2r	.	4r	4ryy	.	4r	.	4r	.
4r	.	4ryy	.	.	.	.	.	.	.	.	.	4r	.	.	4r	.	4r	.	4r	.	.	.	.	(4E-/ 4EE-/	.	.	.	(4b-/	4g\	.	(4ee-\	.	(4eee-\	.
2r	.	2ryy	.	.	.	.	.	.	.	.	.	2r	.	.	2r	.	2r	.	2r	.	.	.	.	4F/ 4FF/	.	4r	.	4a-/	4f\	.	4dd-\	.	4ddd-\	.
.	.	.	.	.	.	.	.	.	.	.	.	.	.	.	.	.	.	.	.	.	.	.	.	4G/ 4GG/)	.	4e-/ 4E-/	.	4e-/)	4d-\	.	4b-\)	.	4bb-\)	.
*	*	*	*	*	*	*	*	*	*	*	*	*	*	*	*	*	*	*	*	*	*	*	*	*	*	*	*	*v	*v	*	*	*	*	*
=25	=25	=25	=25	=25	=25	=25	=25	=25	=25	=25	=25	=25	=25	=25	=25	=25	=25	=25	=25	=25	=25	=25	=25	=25	=25	=25	=25	=25	=25	=25	=25	=25	=25
*	*	*	*	*2\right	*	*2\right	*	*	*	*	*	*	*	*	*	*	*	*	*	*	*	*	*	*	*	*	*	*	*	*	*	*	*
!	!LO:DY:rj	!	!LO:DY:rj	!	!	!	!	!	!	!	!LO:DY:b:rj:t=for	!LO:TX:a:i:t=tutti	!	!	!	!	!	!	!	!LO:DY:rj	!	!	!LO:DY:rj	!	!	!	!LO:DY:rj	!	!LO:DY:rj	!	!	!	!LO:DY:rj
4AA-/	f	4AA-/yy	fy	(2A-\	Be-	(2c\	.	.	(2a-/	.	f	(2a-/	Be-	.	8r	.	8r	f	8r	f	2AA-/	2c/ 2E-/	f	2A-\ 2AA-\	.	2e-/ 2E-/	f	(4e-/ 4c/	f	(4cc\	.	(2aa-\	f
.	.	.	.	.	.	.	.	.	.	.	.	.	.	.	8e-\L 8A-\	.	8a-/L 8c/	.	8a-'/L	.	.	.	.	.	.	.	.	.	.	.	.	.	.
4r	.	4ryy	.	.	.	.	.	.	.	.	.	.	.	.	8e-\ 8A-\	.	8a-/ 8c/	.	8a-'/	.	.	.	.	.	.	.	.	4cc\ 4a-\)	.	4ee-\)	.	.	.
.	.	.	.	.	.	.	.	.	.	.	.	.	.	.	8e-\J 8A-\	.	8a-/J 8c/	.	8a-'/J	.	.	.	.	.	.	.	.	.	.	.	.	.	.
4E-\	.	4E-\yy	.	4.E-\)	.	4.e-\)	.	.	4.g/)	.	.	4.b-/	.	.	8r	.	8r	.	8r	.	4.E-\	4.B-/ 4.E-/	.	4.B-\ 4.E-\	.	4.e-/ 4.E-/	.	4.b-\ 4.g\	.	4.gg\	.	4.bb-\)	.
.	.	.	.	.	.	.	.	.	.	.	.	.	.	.	8e-\L	.	8g'/L	.	8b-'/L	.	.	.	.	.	.	.	.	.	.	.	.	.	.
8r	.	8ryy	.	.	.	.	.	.	.	.	.	.	.	.	8e-\	.	(8g/	.	(8b-/	.	.	.	.	.	.	.	.	.	.	.	.	.	.
8A-\	.	8A-\yy	.	8A-\	-ne-	8e-\	.	.	8a-/	.	.	8cc/)	-ne-	.	8e-\J 8A-\	.	8a-/J)	.	8cc/J)	.	8AA-/	8c\ 8A-\	.	8c\ 8A-\	.	8e-/ 8E-/	.	8cc\ 8a-\	.	8aa-\	.	8ccc\	.
=26	=26	=26	=26	=26	=26	=26	=26	=26	=26	=26	=26	=26	=26	=26	=26	=26	=26	=26	=26	=26	=26	=26	=26	=26	=26	=26	=26	=26	=26	=26	=26	=26	=26
4F\	.	4F\yy	.	2F\	-di-	2c\	.	.	2f/	.	.	2a-/	-di-	.	8r	.	8r	.	8r	.	2FF/	2A-/ 2F/	.	2c\ 2F\	.	2f/ 2F/	.	2a-\	.	2aa-\	.	2aa-\	.
.	.	.	.	.	.	.	.	.	.	.	.	.	.	.	8f\L 8c\	.	8f/L	.	8a-/L	.	.	.	.	.	.	.	.	.	.	.	.	.	.
4r	.	4ryy	.	.	.	.	.	.	.	.	.	.	.	.	8f\ 8c\	.	8f/	.	8a-/	.	.	.	.	.	.	.	.	.	.	.	.	.	.
.	.	.	.	.	.	.	.	.	.	.	.	.	.	.	8f\J 8c\	.	8f/J	.	8a-/J	.	.	.	.	.	.	.	.	.	.	.	.	.	.
4E-\	.	4E-\yy	.	4.E-\	-ctus	4.e-\	.	.	4.g/	.	.	4.b-/	-ctus	.	8r	.	8r	.	8r	.	4.EE-/	4.B-/ 4.G/	.	4.e-\ 4.E-\	.	4.e-/ 4.E-/	.	4.b-\ 4.g\	.	4.gg\	.	4.bb-\	.
.	.	.	.	.	.	.	.	.	.	.	.	.	.	.	8e-\L	.	8g/L	.	8b-/L	.	.	.	.	.	.	.	.	.	.	.	.	.	.
4r	.	4ryy	.	.	.	.	.	.	.	.	.	.	.	.	8e-\	.	8g/	.	8b-/	.	.	.	.	.	.	.	.	.	.	.	.	.	.
.	.	.	.	8E-\	qui	8e-\	.	.	8g/	.	.	8b-/	qui	.	8e-\J	.	8g/J	.	8b-/J	.	8EE-/	8B-/ 8G/	.	8e-\ 8E-\	.	8e-/ 8E-/	.	8b-\ 8g\	.	8gg\	.	8bb-\	.
=27	=27	=27	=27	=27	=27	=27	=27	=27	=27	=27	=27	=27	=27	=27	=27	=27	=27	=27	=27	=27	=27	=27	=27	=27	=27	=27	=27	=27	=27	=27	=27	=27	=27
*	*	*	*	*	*	*	*	*	*	*	*	*	*	*	*	*	*	*	*	*	*	*	*	*	*	*^	*	*	*	*	*	*	*
*	*	*	*	*	*	*	*	*	*	*	*	*	*	*	*	*	*	*	*	*	*	*2\right	*	*	*	*	*	*	*	*	*	*	*	*
!LO:TX:t=P:problem=mixedbeam	!	!LO:TX:t=P:problem=mixedbeam	!	!	!	!	!	!	!	!	!	!	!	!	!	!	!	!	!	!	!	!	!	!	!	!	!	!	!	!	!	!	!	!
8AA-/L	.	8AA-/Lyy	.	2A-\	ve-	2e-\	.	.	2a-/	.	.	2cc\	ve-	.	8r	.	8r	.	8r	.	2.AA-/	2.c\ 2.A-\	.	8A-\L 8AA-\	.	2.e-/ 2.E-/	2.ryy	.	2.cc\ 2.a-\	.	2.aa-\	.	2.ccc\	.
8A-\	.	8A-\yy	.	.	.	.	.	.	.	.	.	.	.	.	8e-\L 8A-\	.	8a-/L	.	8cc\L	.	.	.	.	8A-\	.	.	.	.	.	.	.	.	.	.
8E-\	.	8E-\yy	.	.	.	.	.	.	.	.	.	.	.	.	8e-\ 8A-\	.	8a-/	.	8cc\	.	.	.	.	8E-\	.	.	.	.	.	.	.	.	.	.
8C\J	.	8C\Jyy	.	.	.	.	.	.	.	.	.	.	.	.	8e-\J 8A-\	.	8a-/J	.	8cc\J	.	.	.	.	8C\J	.	.	.	.	.	.	.	.	.	.
8AA-/	.	8AA-/yy	.	4AA-/	-nit	4e-\	.	.	4a-/	.	.	4cc\	-nit	.	8r	.	8r	.	8r	.	.	.	.	8AA-/	.	.	.	.	.	.	.	.	.	.
8r	.	8ryy	.	.	.	.	.	.	.	.	.	.	.	.	8e-\ 8A-\	.	8a-/	.	8cc\	.	.	.	.	8r	.	.	.	.	.	.	.	.	.	.
4C/	.	4C/yy	.	4C/	in	4e-\	.	.	4a-/	.	.	4ee-\	in	.	8r	.	8r	.	8r	.	4C/	4e-\ 4A-\	.	4C/	.	4e-/	4e-\	.	4ee-\ 4a-\	.	4aa-\	.	4eee-\	.
.	.	.	.	.	.	.	.	.	.	.	.	.	.	.	8e-\ 8c\	.	8a-/	.	8ee-\	.	.	.	.	.	.	.	.	.	.	.	.	.	.	.
!!LO:PB:g=original
=28	=28	=28	=28	=28	=28	=28	=28	=28	=28	=28	=28	=28	=28	=28	=28	=28	=28	=28	=28	=28	=28	=28	=28	=28	=28	=28	=28	=28	=28	=28	=28	=28	=28	=28
*	*	*	*	*	*	*	*	*	*	*	*	*	*	*	*	*	*	*	*	*	*	*^	*	*	*	*	*	*	*^	*	*	*	*	*
4D-/	.	4D-/yy	.	(4D-/	no-	2f\	.	.	2f/	.	.	(4.ee-\	no-	.	8r	.	8r	.	8r	.	4D-/	4.e-/	2F\	.	4D-/	.	2f/	2f\	.	(4.ee-/	2f\	.	(2ff\	.	(4.eee-\	.
.	.	.	.	.	.	.	.	.	.	.	.	.	.	.	(8d-/L	.	8f/L	.	8ee-'\L	.	.	.	.	.	.	.	.	.	.	.	.	.	.	.	.	.
4BB-/	.	4BB-/yy	.	4BB-/)	.	.	.	.	.	.	.	.	.	.	8B-/)	.	8f/	.	(8ee-\	.	4BB-/	.	.	.	4BB-/	.	.	.	.	.	.	.	.	.	.	.
.	.	.	.	.	.	.	.	.	.	.	.	8dd-\)	.	.	8B-'/J	.	8f/J	.	8dd-\)J	.	.	8d-/	.	.	.	.	.	.	.	8dd-/)	.	.	.	.	8ddd-\)	.
*	*	*	*	*	*	*	*	*	*	*	*	*	*	*	*	*	*	*	*	*	*2\right	*	*	*	*	*	*	*	*	*	*	*	*	*	*	*
8E-\	.	8E-\yy	.	4E-\	-mi-	4e-\	.	.	4a-/	.	.	4cc\	-mi-	.	8r	.	8r	.	8r	.	2E-\	4c/	4A-\	.	2E-\	.	2e-/	2e-\	.	4cc/	4a-\	.	4aa-\)	.	4ccc\	.
8r	.	8ryy	.	.	.	.	.	.	.	.	.	.	.	.	8e-\	.	8a-/	.	8cc\	.	.	.	.	.	.	.	.	.	.	.	.	.	.	.	.	.
8E-\	.	8E-\yy	.	4E-\	-ne	4e-\	.	.	4g/	.	.	4b-\	-ne	.	8r	.	8r	.	8r	.	.	4B-/	4G\	.	.	.	.	.	.	4cc/	4g\	.	4gg\	.	4bb-\	.
8r	.	8ryy	.	.	.	.	.	.	.	.	.	.	.	.	8e-\	.	8g/	.	8b-\	.	.	.	.	.	.	.	.	.	.	.	.	.	.	.	.	.
=29	=29	=29	=29	=29	=29	=29	=29	=29	=29	=29	=29	=29	=29	=29	=29	=29	=29	=29	=29	=29	=29	=29	=29	=29	=29	=29	=29	=29	=29	=29	=29	=29	=29	=29	=29	=29
4E-\	.	4E-\yy	.	4.E-\	Do-	4.e-\	.	.	4.g/	.	.	4.b-\	Do-	.	8r	.	8r	.	8r	.	2E-\	(4.B-/	2G\	.	2E-\	.	2.e-/	2.e-\	.	(4.b-/	4.g\	.	2gg\	.	(4.bb-\	.
.	.	.	.	.	.	.	.	.	.	.	.	.	.	.	8e-\L	.	8g/L	.	8b-'\L	.	.	.	.	.	.	.	.	.	.	.	.	.	.	.	.	.
4r	.	4ryy	.	.	.	.	.	.	.	.	.	.	.	.	8e-\	.	8g/	.	(8b-\	.	.	.	.	.	.	.	.	.	.	.	.	.	.	.	.	.
.	.	.	.	8E-\	-mi-	8e-\	.	.	8g/	.	.	8bn\	-mi-	.	8e-\J	.	8g/J	.	8bn\J)	.	.	8Bn/	.	.	.	.	.	.	.	8bX/	8g\	.	.	.	8bbn\	.
8AA-/	.	8AA-/yy	.	4AA-/	-ni	4e-\	.	.	4a-/	.	.	4cc\	-ni	.	8r	.	8r	.	8r	.	4AA-/	4c/)	4A-\	.	4A-\ 4AA-\	.	.	.	.	4cc/)	4a-\	.	4aa-\	.	4ccc\)	.
8r	.	8ryy	.	.	.	.	.	.	.	.	.	.	.	.	8e-\	.	8a-/	.	8cc\	.	.	.	.	.	.	.	.	.	.	.	.	.	.	.	.	.
8C/	.	8C/yy	.	4C/	in	4e-\	.	.	4a-/	.	.	4ee-\	in	.	8r	.	8r	.	8r	.	4C/	4e-/	4A-\	.	4c\ 4C\	.	4e-/	4e-\	.	(4ee-/	4a-\	.	4aa-\	.	(4eee-\	.
8r	.	8ryy	.	.	.	.	.	.	.	.	.	.	.	.	8c\	.	8a-/	.	8ee-\	.	.	.	.	.	.	.	.	.	.	.	.	.	.	.	.	.
=30	=30	=30	=30	=30	=30	=30	=30	=30	=30	=30	=30	=30	=30	=30	=30	=30	=30	=30	=30	=30	=30	=30	=30	=30	=30	=30	=30	=30	=30	=30	=30	=30	=30	=30	=30	=30
*	*	*	*	*	*	*^	*	*	*	*	*	*	*	*	*	*	*	*	*	*	*	*	*	*	*	*	*	*	*	*	*	*	*	*	*	*
8D-\	.	8D-\yy	.	4D-\	no-	4f\	2.ryy	.	.	4f/	.	.	4ee-\	no-	.	8r	.	8r	.	8r	.	2D-\	(4e-/	2F\	.	4d-\ 4D-\	.	2f/	2f\	.	4ee-/	2f\	.	2ff\	.	4eee-\	.
8r	.	8ryy	.	.	.	.	.	.	.	.	.	.	.	.	.	8d-\	.	8f/	.	8ee-\	.	.	.	.	.	.	.	.	.	.	.	.	.	.	.	.	.
8D-\	.	8D-\yy	.	8D-\	-mi-	8f\	.	.	.	8f/	.	.	8dd-\	-mi-	.	8r	.	8r	.	8r	.	.	4d-/	.	.	4B-\ 4BB-\	.	.	.	.	4dd-/	.	.	.	.	4ddd-\	.
8r	.	8ryy	.	8D-\	-ne	8f\	.	.	.	8f/	.	.	8dd-\	-ne	.	8d-\	.	8f/	.	8dd-\	.	.	.	.	.	.	.	.	.	.	.	.	.	.	.	.	.
8E-\	.	8E-\yy	.	4E-\	Do-	4e-\	.	.	.	4a-/	.	.	4cc\	Do-	.	8r	.	8r	.	8r	.	2E-\	4c/	4A-\	.	4e-\ 4E-\	.	2e-/	2e-\	.	4cc/	4a-\	.	4aa-\	.	4ccc\	.
8r	.	8ryy	.	.	.	.	.	.	.	.	.	.	.	.	.	8e-\	.	8a-/	.	8cc\	.	.	.	.	.	.	.	.	.	.	.	.	.	.	.	.	.
8EE-/	.	8EE-/yy	.	4E-\	-mi-	4e-/	4d-\	.	.	4g/	.	.	4b-\	-mi-	.	8r	.	8r	.	8r	.	.	4B-/)	4G\	.	4d-\ 4E-\	.	.	.	.	4b-/)	4g\	.	4gg\	.	4bb-\	.
8r	.	8ryy	.	.	.	.	.	.	.	.	.	.	.	.	.	8e-\	.	8g/ 8d-/	.	8b-\	.	.	.	.	.	.	.	.	.	.	.	.	.	.	.	.	.
=31	=31	=31	=31	=31	=31	=31	=31	=31	=31	=31	=31	=31	=31	=31	=31	=31	=31	=31	=31	=31	=31	=31	=31	=31	=31	=31	=31	=31	=31	=31	=31	=31	=31	=31	=31	=31	=31
8AA-'/L	.	8AA-'/Lyy	.	4A-\	-ni	4e-/	4c\	.	.	4a-/	.	.	4a-/	-ni	.	8A-'/L	.	4a-/ 4c/	.	4a-/	.	4AA-/	4c/	4A-\	.	8c\L 8A-'\	.	4e-/	4e-\	.	4a-/	4a-\	.	4aa-\	.	4aa-\)	.
(8Dn/	.	(y8Dn/yy	.	.	.	.	.	.	.	.	.	.	.	.	.	(8dn/	.	.	.	.	.	.	.	.	.	(8dn\ 8Dn\	.	.	.	.	.	.	.	.	.	.	.
8E-/)	.	8E-/)yy	.	4r	.	4r	2.ryy	.	.	4r	.	.	4r	.	.	8e-/)	.	4r	.	4r	.	4r	4r	4ryy	.	8e-\ 8E-\)	.	4r	4ryy	.	4r	4ryy	.	4r	.	4r	.
8C'/J	.	8C'/Jyy	.	.	.	.	.	.	.	.	.	.	.	.	.	8c'/J	.	.	.	.	.	.	.	.	.	8c\J 8C'\	.	.	.	.	.	.	.	.	.	.	.
8AA-'/	.	8AA-'/yy	.	4r	.	4r	.	.	.	4r	.	.	4r	.	.	8A-/	.	4r	.	4r	.	4r	4r	4ryy	.	8A-/ 8AA-/	.	4r	4ryy	.	4r	4ryy	.	4r	.	4r	.
8r	.	8ryy	.	.	.	.	.	.	.	.	.	.	.	.	.	8r	.	.	.	.	.	.	.	.	.	8r	.	.	.	.	.	.	.	.	.	.	.
8.G-X\L	.	8.G-X\Lyy	.	8.G-X\	Be-	8.e-\	.	.	.	8.a-/	.	.	8.cc\	Be-	.	8.g-X\L	.	8.a-/L	.	(8.cc/L 8.e-/	.	8.G-X\L	8.c\L 8.A-\	4ryy	.	8.G-X\L	.	8.e-/L	8.e-\L	.	8.cc/L	8.a-\L	.	8.aa-\L	.	(8.ccc\L	.
16G-\Jk	.	16G-\Jkyy	.	16G-\	-ne-	16e-\	.	.	.	16a-/	.	.	16a-/	-ne-	.	16g-\Jk	.	16a-/Jk	.	16a-/Jk)	.	16G-\Jk	16c\Jk 16A-\	.	.	16G-\Jk	.	16e-/Jk	16e-\Jk	.	16a-/Jk	16a-\Jk	.	16aa-\Jk	.	16aa-\Jk)	.
*	*	*	*	*	*	*v	*v	*	*	*	*	*	*	*	*	*	*	*	*	*	*	*	*	*	*	*	*	*	*	*	*	*	*	*	*	*	*
!!LO:PB:g=original
=32	=32	=32	=32	=32	=32	=32	=32	=32	=32	=32	=32	=32	=32	=32	=32	=32	=32	=32	=32	=32	=32	=32	=32	=32	=32	=32	=32	=32	=32	=32	=32	=32	=32	=32	=32	=32
*	*	*	*	*	*	*	*	*	*	*	*	*	*	*	*tremolo	*	*tremolo	*	*tremolo	*	*	*	*	*	*	*	*	*	*	*	*	*	*	*	*	*
8F'\L	.	8F'\Lyy	.	2F\	-di-	2d-\	.	.	2a-/	.	.	2dd-^\	-di-	.	32f^\LLL	.	32a-^>/LLL	.	32dd-^\LLL	.	2.F\	2.d-/	2.A-\	.	8F'/L	.	2.f^/	2.f\	.	(2dd-^/	2.a-\	.	2.aa-^\	.	(2ddd-\	.
.	.	.	.	.	.	.	.	.	.	.	.	.	.	.	32f\	.	32a-/	.	32dd-\	.	.	.	.	.	.	.	.	.	.	.	.	.	.	.	.	.
.	.	.	.	.	.	.	.	.	.	.	.	.	.	.	32f\	.	32a-/	.	32dd-\	.	.	.	.	.	.	.	.	.	.	.	.	.	.	.	.	.
.	.	.	.	.	.	.	.	.	.	.	.	.	.	.	32f\	.	32a-/	.	32dd-\	.	.	.	.	.	.	.	.	.	.	.	.	.	.	.	.	.
(8C\	.	(y8C\yy	.	.	.	.	.	.	.	.	.	.	.	.	32f\	.	32a-/	.	32dd-\	.	.	.	.	.	(8C/	.	.	.	.	.	.	.	.	.	.	.
.	.	.	.	.	.	.	.	.	.	.	.	.	.	.	32f\	.	32a-/	.	32dd-\	.	.	.	.	.	.	.	.	.	.	.	.	.	.	.	.	.
.	.	.	.	.	.	.	.	.	.	.	.	.	.	.	32f\	.	32a-/	.	32dd-\	.	.	.	.	.	.	.	.	.	.	.	.	.	.	.	.	.
.	.	.	.	.	.	.	.	.	.	.	.	.	.	.	32f\	.	32a-/	.	32dd-\	.	.	.	.	.	.	.	.	.	.	.	.	.	.	.	.	.
8D-\)	.	8D-\)yy	.	.	.	.	.	.	.	.	.	.	.	.	32f\	.	32a-/	.	32dd-\	.	.	.	.	.	8D-/)	.	.	.	.	.	.	.	.	.	.	.
.	.	.	.	.	.	.	.	.	.	.	.	.	.	.	32f\	.	32a-/	.	32dd-\	.	.	.	.	.	.	.	.	.	.	.	.	.	.	.	.	.
.	.	.	.	.	.	.	.	.	.	.	.	.	.	.	32f\	.	32a-/	.	32dd-\	.	.	.	.	.	.	.	.	.	.	.	.	.	.	.	.	.
.	.	.	.	.	.	.	.	.	.	.	.	.	.	.	32f\	.	32a-/	.	32dd-\	.	.	.	.	.	.	.	.	.	.	.	.	.	.	.	.	.
8AA-'\J	.	8AA-'\Jyy	.	.	.	.	.	.	.	.	.	.	.	.	32f\	.	32a-/	.	32dd-\	.	.	.	.	.	8AA-'/J	.	.	.	.	.	.	.	.	.	.	.
.	.	.	.	.	.	.	.	.	.	.	.	.	.	.	32f\	.	32a-/	.	32dd-\	.	.	.	.	.	.	.	.	.	.	.	.	.	.	.	.	.
.	.	.	.	.	.	.	.	.	.	.	.	.	.	.	32f\	.	32a-/	.	32dd-\	.	.	.	.	.	.	.	.	.	.	.	.	.	.	.	.	.
.	.	.	.	.	.	.	.	.	.	.	.	.	.	.	32f\JJJ	.	32a-/JJJ	.	32dd-\JJJ	.	.	.	.	.	.	.	.	.	.	.	.	.	.	.	.	.
*	*	*	*	*	*	*	*	*	*	*	*	*	*	*	*Xtremolo	*	*Xtremolo	*	*Xtremolo	*	*	*	*	*	*	*	*	*	*	*	*	*	*	*	*	*
4FF/	.	4FF/yy	.	4F\	-ctus	4d-\	.	.	4a-/	.	.	4a-/	-ctus	.	4f\	.	4a-/	.	4a-/	.	.	.	.	.	4FF/	.	.	.	.	4a-/)	.	.	.	.	4aa-\)	.
8.C/L	.	8.C/Lyy	.	4C/	qui	4A-\	.	.	4a-/	.	.	(8.ee-\L	qui	.	8.c\L	.	8.a-/L	.	8.ee-\L	.	8.C/L	8.e-\L 8.A-\	4ryy	.	8.C/L	.	8.e-/L	8.e-\L	.	8.ee-/L	8.a-\L	.	8.aa-\L	.	(8.eee-\L	.
16C/Jk	.	16C/Jkyy	.	.	.	.	.	.	.	.	.	16a-\Jk)	.	.	16c\Jk	.	16a-/Jk	.	16a-\Jk	.	16C/Jk	16e-\Jk 16A-\	.	.	16C/Jk	.	16e-/Jk	16e-\Jk	.	16a-/Jk	16a-\Jk	.	16aa-\Jk	.	16aa-\Jk)	.
*	*	*	*	*	*	*	*	*	*	*	*	*	*	*	*	*	*	*	*	*	*	*v	*v	*	*	*	*	*	*	*	*	*	*	*	*	*
=33	=33	=33	=33	=33	=33	=33	=33	=33	=33	=33	=33	=33	=33	=33	=33	=33	=33	=33	=33	=33	=33	=33	=33	=33	=33	=33	=33	=33	=33	=33	=33	=33	=33	=33	=33
*	*	*	*	*	*	*	*	*	*	*	*	*	*	*	*tremolo	*	*tremolo	*	*tremolo	*	*	*	*	*	*	*	*	*	*	*	*	*	*	*	*
8D-'\L	.	8D-'\Lyy	.	2D-\	ve-	2A-\	.	.	2a-/	.	.	2ff^\	ve-	.	32d-^\LLL	.	32a-^>/LLL	.	32ff^\LLL	.	2.D-^\	2.f\ 2.A-\	.	8D-'\L	.	2.f^/	2.f\	.	(2ff^/	2.a-\	.	(2aa-^\	.	(2fff\	.
.	.	.	.	.	.	.	.	.	.	.	.	.	.	.	32d-\	.	32a-/	.	32ff\	.	.	.	.	.	.	.	.	.	.	.	.	.	.	.	.
.	.	.	.	.	.	.	.	.	.	.	.	.	.	.	32d-\	.	32a-/	.	32ff\	.	.	.	.	.	.	.	.	.	.	.	.	.	.	.	.
.	.	.	.	.	.	.	.	.	.	.	.	.	.	.	32d-\	.	32a-/	.	32ff\	.	.	.	.	.	.	.	.	.	.	.	.	.	.	.	.
(8En\	.	(y8En\yy	.	.	.	.	.	.	.	.	.	.	.	.	32d-\	.	32a-/	.	32ff\	.	.	.	.	(8En\	.	.	.	.	.	.	.	.	.	.	.
.	.	.	.	.	.	.	.	.	.	.	.	.	.	.	32d-\	.	32a-/	.	32ff\	.	.	.	.	.	.	.	.	.	.	.	.	.	.	.	.
.	.	.	.	.	.	.	.	.	.	.	.	.	.	.	32d-\	.	32a-/	.	32ff\	.	.	.	.	.	.	.	.	.	.	.	.	.	.	.	.
.	.	.	.	.	.	.	.	.	.	.	.	.	.	.	32d-\	.	32a-/	.	32ff\	.	.	.	.	.	.	.	.	.	.	.	.	.	.	.	.
8F\)	.	8F\)yy	.	.	.	.	.	.	.	.	.	.	.	.	32d-\	.	32a-/	.	32ff\	.	.	.	.	8F\)	.	.	.	.	.	.	.	.	.	.	.
.	.	.	.	.	.	.	.	.	.	.	.	.	.	.	32d-\	.	32a-/	.	32ff\	.	.	.	.	.	.	.	.	.	.	.	.	.	.	.	.
.	.	.	.	.	.	.	.	.	.	.	.	.	.	.	32d-\	.	32a-/	.	32ff\	.	.	.	.	.	.	.	.	.	.	.	.	.	.	.	.
.	.	.	.	.	.	.	.	.	.	.	.	.	.	.	32d-\	.	32a-/	.	32ff\	.	.	.	.	.	.	.	.	.	.	.	.	.	.	.	.
8A-'\J	.	8A-'\Jyy	.	.	.	.	.	.	.	.	.	.	.	.	32d-\	.	32a-/	.	32ff\	.	.	.	.	8A-'\J	.	.	.	.	.	.	.	.	.	.	.
.	.	.	.	.	.	.	.	.	.	.	.	.	.	.	32d-\	.	32a-/	.	32ff\	.	.	.	.	.	.	.	.	.	.	.	.	.	.	.	.
.	.	.	.	.	.	.	.	.	.	.	.	.	.	.	32d-\	.	32a-/	.	32ff\	.	.	.	.	.	.	.	.	.	.	.	.	.	.	.	.
.	.	.	.	.	.	.	.	.	.	.	.	.	.	.	32d-\JJJ	.	32a-/JJJ	.	32ff\JJJ	.	.	.	.	.	.	.	.	.	.	.	.	.	.	.	.
*	*	*	*	*	*	*	*	*	*	*	*	*	*	*	*Xtremolo	*	*Xtremolo	*	*Xtremolo	*	*	*	*	*	*	*	*	*	*	*	*	*	*	*	*
4D-\	.	4D-\yy	.	4D-\	-nit	4f\	.	.	4a-/	.	.	4dd-\	-nit	.	4f\	.	4a-/	.	4dd-\	.	.	.	.	4D-\	.	.	.	.	4dd-/)	.	.	4ff\)	.	4ddd-\)	.
4Dn\	.	4Dn\yy	.	4Dn\	in	4f\	.	.	4a-/	.	.	4b-\	in	.	4f\	.	4a-/	.	4b-\	.	4r	4r	.	4f\ 4Dn\	.	4r	4ryy	.	4b-/	4a-\	.	4r	.	4r	.
*	*	*	*	*	*	*	*	*	*	*	*	*	*	*	*	*	*	*	*	*	*	*	*	*	*	*v	*v	*	*	*	*	*	*	*	*
*	*	*	*	*	*	*	*	*	*	*	*	*	*	*	*	*	*	*	*	*	*	*	*	*	*	*	*	*v	*v	*	*	*	*	*
=34	=34	=34	=34	=34	=34	=34	=34	=34	=34	=34	=34	=34	=34	=34	=34	=34	=34	=34	=34	=34	=34	=34	=34	=34	=34	=34	=34	=34	=34	=34	=34	=34	=34
4E-\	.	4E-\yy	.	4E-\	no-	4e-\	.	.	4a-/	.	.	4cc\	no-	.	8r	.	8r	.	8r	.	1r	1r	.	4e-\ 4E-\	.	1r	.	(4cc\ 4a-\	.	1r	.	1r	.
.	.	.	.	.	.	.	.	.	.	.	.	.	.	.	8e-\L	.	8a-'/L	.	8cc'\L	.	.	.	.	.	.	.	.	.	.	.	.	.	.
!	!	!	!	!	!	!	!	!	!	!	!	!LO:SIC:v:o=8b-\	!	!	!	!	!	!	!	!	!	!	!	!	!	!	!	!	!	!	!	!	!
4r	.	4ryy	.	8E-\	-mi-	8e-\	.	.	8g/	.	.	8bn	-mi-	.	8e-\	.	(8g/	.	(8bn\	.	.	.	.	8e-\L 8E-\	.	.	.	8b-\L 8g\	.	.	.	.	.
.	.	.	.	8E-\	-ne	8e-\	.	.	8a-/	.	.	8cc\	-ne	.	8e-\J	.	8a-/J)	.	8cc\J)	.	.	.	.	8e-\J 8E-\	.	.	.	8cc\J 8a-\	.	.	.	.	.
8E-\	.	8E-\yy	.	4E-\	Do-	4e-\	.	.	4b-/	.	.	4dd-\	Do-	.	8r	.	8r	.	8r	.	.	.	.	4e-\ 4E-\	.	.	.	4dd-\ 4b-\	.	.	.	.	.
8r	.	8ryy	.	.	.	.	.	.	.	.	.	.	.	.	8e-\	.	8b-\	.	8dd-\	.	.	.	.	.	.	.	.	.	.	.	.	.	.
8E-\	.	8E-\yy	.	4E-\	-mi-	4e-\	.	.	4g/	.	.	4ee-\	-mi-	.	8r	.	8r	.	8r	.	.	.	.	4e-\ 4E-\	.	.	.	4ee-\ 4g\)	.	.	.	.	.
8r	.	8ryy	.	.	.	.	.	.	.	.	.	.	.	.	8e-\	.	8g/	.	8ee-\	.	.	.	.	.	.	.	.	.	.	.	.	.	.
!!LO:PB:g=original
=35	=35	=35	=35	=35	=35	=35	=35	=35	=35	=35	=35	=35	=35	=35	=35	=35	=35	=35	=35	=35	=35	=35	=35	=35	=35	=35	=35	=35	=35	=35	=35	=35	=35
*	*	*	*	*	*	*	*	*	*	*	*	*	*	*	*	*	*	*	*	*	*	*	*	*	*	*	*	*^	*	*	*	*	*
8A-'\L	.	8A-'\Lyy	.	4A-\	-ni	4e-\ 4c\	.	.	4a-/	.	.	4cc\	-ni	.	8c'\L	.	4a-/	.	4cc\	.	2r	2r	.	8A-'\L	.	2r	.	4cc/	4a-\	.	2r	.	2r	.
(8Dn\	.	(y8Dn\yy	.	.	.	.	.	.	.	.	.	.	.	.	(8dn\	.	.	.	.	.	.	.	.	(8Dn\	.	.	.	.	.	.	.	.	.	.
8E-\)	.	8E-\)yy	.	4r	.	4r	.	.	4r	.	.	4r	.	.	8e-\)	.	4r	.	4r	.	.	.	.	8E-\)	.	.	.	4r	4ryy	.	.	.	.	.
8C'\J	.	8C'\Jyy	.	.	.	.	.	.	.	.	.	.	.	.	8c'\J	.	.	.	.	.	.	.	.	8C'\J	.	.	.	.	.	.	.	.	.	.
4AA-/	.	4AA-/yy	.	4r	.	4r	.	.	4r	.	.	4r	.	.	4A-/	.	4r	.	4r	.	4r	4r	.	4AA-/	.	4r	.	4r	4ryy	.	4r	.	4r	.
8.G-X\L	.	8.G-X\Lyy	.	8.G-X\	Be-	8.e-\	.	.	8.a-/	.	.	8.cc\	Be-	.	8.f-X\L	.	8.a-/L	.	8.cc/L 8.e-/	.	8.G-X\L	8.c\L 8.A-\	.	8.G-X\L	.	8.e-\L	.	8.cc/L	8.a-\L	.	8.aa-\L	.	8.ccc\L|	.
16G-\Jk	.	16G-\Jkyy	.	16G-\	-ne-	16e-\	.	.	16a-/	.	.	16a-/	-ne-	.	16f-\Jk	.	16a-/Jk	.	16a-/Jk	.	16G-\Jk	16c\Jk 16A-\	.	16G-\Jk	.	16e-\Jk	.	16a-/Jk	16a-\Jk	.	16aa-\Jk	.	16aa-\Jk|	.
=36	=36	=36	=36	=36	=36	=36	=36	=36	=36	=36	=36	=36	=36	=36	=36	=36	=36	=36	=36	=36	=36	=36	=36	=36	=36	=36	=36	=36	=36	=36	=36	=36	=36	=36
*	*	*	*	*	*	*	*	*	*	*	*	*	*	*	*tremolo	*	*tremolo	*	*tremolo	*	*	*	*	*	*	*	*	*	*	*	*	*	*	*
8F'/L	.	8F'/Lyy	.	2F\	-di-	2d-\	.	.	2a-/	.	.	2dd-\	-di-	.	32f\LLL	.	32a-^/LLL	.	32dd-^<\LLL	.	2.F\	2.d-\ 2.A-^<\	.	8F'/L	.	2.f\	.	(2dd-/	2.a-^<\	.	2.aa-^\	.	(2ddd-\	.
.	.	.	.	.	.	.	.	.	.	.	.	.	.	.	32f\	.	32a-/	.	32dd-\	.	.	.	.	.	.	.	.	.	.	.	.	.	.	.
.	.	.	.	.	.	.	.	.	.	.	.	.	.	.	32f\	.	32a-/	.	32dd-\	.	.	.	.	.	.	.	.	.	.	.	.	.	.	.
.	.	.	.	.	.	.	.	.	.	.	.	.	.	.	32f\	.	32a-/	.	32dd-\	.	.	.	.	.	.	.	.	.	.	.	.	.	.	.
(8C/	.	(y8C/yy	.	.	.	.	.	.	.	.	.	.	.	.	32f\	.	32a-/	.	32dd-\	.	.	.	.	(8C/	.	.	.	.	.	.	.	.	.	.
.	.	.	.	.	.	.	.	.	.	.	.	.	.	.	32f\	.	32a-/	.	32dd-\	.	.	.	.	.	.	.	.	.	.	.	.	.	.	.
.	.	.	.	.	.	.	.	.	.	.	.	.	.	.	32f\	.	32a-/	.	32dd-\	.	.	.	.	.	.	.	.	.	.	.	.	.	.	.
.	.	.	.	.	.	.	.	.	.	.	.	.	.	.	32f\	.	32a-/	.	32dd-\	.	.	.	.	.	.	.	.	.	.	.	.	.	.	.
8D-/)	.	8D-/)yy	.	.	.	.	.	.	.	.	.	.	.	.	32f\	.	32a-/	.	32dd-\	.	.	.	.	8D-/)	.	.	.	.	.	.	.	.	.	.
.	.	.	.	.	.	.	.	.	.	.	.	.	.	.	32f\	.	32a-/	.	32dd-\	.	.	.	.	.	.	.	.	.	.	.	.	.	.	.
.	.	.	.	.	.	.	.	.	.	.	.	.	.	.	32f\	.	32a-/	.	32dd-\	.	.	.	.	.	.	.	.	.	.	.	.	.	.	.
.	.	.	.	.	.	.	.	.	.	.	.	.	.	.	32f\	.	32a-/	.	32dd-\	.	.	.	.	.	.	.	.	.	.	.	.	.	.	.
8AA-'/J	.	8AA-'/Jyy	.	.	.	.	.	.	.	.	.	.	.	.	32f\	.	32a-/	.	32dd-\	.	.	.	.	8AA-'/J	.	.	.	.	.	.	.	.	.	.
.	.	.	.	.	.	.	.	.	.	.	.	.	.	.	32f\	.	32a-/	.	32dd-\	.	.	.	.	.	.	.	.	.	.	.	.	.	.	.
.	.	.	.	.	.	.	.	.	.	.	.	.	.	.	32f\	.	32a-/	.	32dd-\	.	.	.	.	.	.	.	.	.	.	.	.	.	.	.
.	.	.	.	.	.	.	.	.	.	.	.	.	.	.	32f\JJJ	.	32a-/JJJ	.	32dd-\JJJ	.	.	.	.	.	.	.	.	.	.	.	.	.	.	.
*	*	*	*	*	*	*	*	*	*	*	*	*	*	*	*Xtremolo	*	*Xtremolo	*	*Xtremolo	*	*	*	*	*	*	*	*	*	*	*	*	*	*	*
4FF/	.	4FF/yy	.	4F\	-ctus	4d-\	.	.	4a-/	.	.	4a-/	-ctus	.	4f\	.	4a-/	.	4a-/	.	.	.	.	4FF/	.	.	.	4a-/)	.	.	.	.	4aa-\)	.
8.C/L	.	8.C/Lyy	.	4C/	qui	4A-\	.	.	4a-/	.	.	(8.ee-\L	qui	.	8.c/L	.	8.a-/L	.	8.ee-\L	.	8.C/L	8.e-\L 8.A-\	.	8.C/L	.	8.e-\L	.	8.ee-/L	8.a-\L	.	8.aa-\L	.	8.eee-\L|	.
16C/Jk	.	16C/Jkyy	.	.	.	.	.	.	.	.	.	16a-\Jk)	.	.	16c/Jk	.	16a-/Jk	.	16a-\Jk	.	16C/Jk	16e-\Jk 16A-\	.	16C/Jk	.	16e-\Jk	.	16a-/Jk	16a-\Jk	.	16aa-\Jk	.	16aa-\Jk|	.
=37	=37	=37	=37	=37	=37	=37	=37	=37	=37	=37	=37	=37	=37	=37	=37	=37	=37	=37	=37	=37	=37	=37	=37	=37	=37	=37	=37	=37	=37	=37	=37	=37	=37	=37
*	*	*	*	*	*	*	*	*	*	*	*	*	*	*	*tremolo	*	*tremolo	*	*tremolo	*	*	*	*	*	*	*	*	*	*	*	*	*	*	*
8D-'\L	.	8D-'\Lyy	.	2D-\	ve-	2A-\	.	.	2a-/	.	.	2ff\	ve-	.	32d-\LLL	.	32a-^/LLL	.	32ff^<\LLL	.	2.D-\	2.f\ 2.A-^<\	.	8D-'\L	.	2.f\	.	(2ff/	2.a-^<\	.	(2aa-^\	.	(2fff\	.
.	.	.	.	.	.	.	.	.	.	.	.	.	.	.	32d-\	.	32a-/	.	32ff\	.	.	.	.	.	.	.	.	.	.	.	.	.	.	.
.	.	.	.	.	.	.	.	.	.	.	.	.	.	.	32d-\	.	32a-/	.	32ff\	.	.	.	.	.	.	.	.	.	.	.	.	.	.	.
.	.	.	.	.	.	.	.	.	.	.	.	.	.	.	32d-\	.	32a-/	.	32ff\	.	.	.	.	.	.	.	.	.	.	.	.	.	.	.
(8En\	.	(y8En\yy	.	.	.	.	.	.	.	.	.	.	.	.	32d-\	.	32a-/	.	32ff\	.	.	.	.	(8En\	.	.	.	.	.	.	.	.	.	.
.	.	.	.	.	.	.	.	.	.	.	.	.	.	.	32d-\	.	32a-/	.	32ff\	.	.	.	.	.	.	.	.	.	.	.	.	.	.	.
.	.	.	.	.	.	.	.	.	.	.	.	.	.	.	32d-\	.	32a-/	.	32ff\	.	.	.	.	.	.	.	.	.	.	.	.	.	.	.
.	.	.	.	.	.	.	.	.	.	.	.	.	.	.	32d-\	.	32a-/	.	32ff\	.	.	.	.	.	.	.	.	.	.	.	.	.	.	.
8F\)	.	8F\)yy	.	.	.	.	.	.	.	.	.	.	.	.	32d-\	.	32a-/	.	32ff\	.	.	.	.	8F\)	.	.	.	.	.	.	.	.	.	.
.	.	.	.	.	.	.	.	.	.	.	.	.	.	.	32d-\	.	32a-/	.	32ff\	.	.	.	.	.	.	.	.	.	.	.	.	.	.	.
.	.	.	.	.	.	.	.	.	.	.	.	.	.	.	32d-\	.	32a-/	.	32ff\	.	.	.	.	.	.	.	.	.	.	.	.	.	.	.
.	.	.	.	.	.	.	.	.	.	.	.	.	.	.	32d-\	.	32a-/	.	32ff\	.	.	.	.	.	.	.	.	.	.	.	.	.	.	.
8A-'\J	.	8A-'\Jyy	.	.	.	.	.	.	.	.	.	.	.	.	32d-\	.	32a-/	.	32ff\	.	.	.	.	8A-'\J	.	.	.	.	.	.	.	.	.	.
.	.	.	.	.	.	.	.	.	.	.	.	.	.	.	32d-\	.	32a-/	.	32ff\	.	.	.	.	.	.	.	.	.	.	.	.	.	.	.
.	.	.	.	.	.	.	.	.	.	.	.	.	.	.	32d-\	.	32a-/	.	32ff\	.	.	.	.	.	.	.	.	.	.	.	.	.	.	.
.	.	.	.	.	.	.	.	.	.	.	.	.	.	.	32d-\JJJ	.	32a-/JJJ	.	32ff\JJJ	.	.	.	.	.	.	.	.	.	.	.	.	.	.	.
*	*	*	*	*	*	*	*	*	*	*	*	*	*	*	*Xtremolo	*	*Xtremolo	*	*Xtremolo	*	*	*	*	*	*	*	*	*	*	*	*	*	*	*
4D-\	.	4D-\yy	.	4D-\	-nit	4f\	.	.	4a-/	.	.	4dd-\	-nit	.	4f\	.	4a-/	.	4dd-\	.	.	.	.	4D-\	.	.	.	4dd-/)	.	.	4ff\)	.	4ddd-\)	.
4Dn^\	.	4Dn^\yy	.	4Dn\	in	4f\	.	.	4a-/	.	.	4b-\	in	.	4f\	.	4a-^/	.	4b-^\	.	4r	4r	.	4f\ 4Dn\	.	4r	.	4b-/	4a-\	.	4r	.	4r	.
=38	=38	=38	=38	=38	=38	=38	=38	=38	=38	=38	=38	=38	=38	=38	=38	=38	=38	=38	=38	=38	=38	=38	=38	=38	=38	=38	=38	=38	=38	=38	=38	=38	=38	=38
*	*	*	*	*	*	*^	*	*	*	*	*	*	*	*	*	*	*	*	*	*	*	*	*	*	*	*	*	*	*	*	*	*	*	*
4E-\	.	4E-\yy	.	4E-\	no-	4e-\	2.ryy	.	.	4a-/	.	.	4cc\	no-	.	8r	.	8r	.	8r	.	2r	2r	.	4e-\ 4E-\	.	2r	.	4cc/	4a-\	.	2r	.	2r	.
.	.	.	.	.	.	.	.	.	.	.	.	.	.	.	.	8e-\L	.	8a-'/L	.	(8cc\L	.	.	.	.	.	.	.	.	.	.	.	.	.	.	.
4r	.	4ryy	.	8E-\	-mi-	8e-\	.	.	.	8g/	.	.	8b-\	-mi-	.	8e-\	.	(8g/	.	(8b-\)	.	.	.	.	8e-\L 8E-\	.	.	.	(8b-\L 8g\	2ryy	.	.	.	.	.
.	.	.	.	8E-\	-ne	8e-\	.	.	.	8a-/	.	.	8cc\	-ne	.	8e-\J	.	8a-/J)	.	8cc\J)	.	.	.	.	8e-\J 8E-\	.	.	.	8cc\J 8a-\	.	.	.	.	.	.
8E-\	.	8E-\yy	.	4E-\	Do-	4e-\	.	.	.	4b-/	.	.	4dd-\	Do-	.	8r	.	8r	.	8r	.	4r	4r	.	4e-\ 4E-\	.	4r	.	4dd-\ 4b-\	.	.	4r	.	4r	.
8r	.	8ryy	.	.	.	.	.	.	.	.	.	.	.	.	.	8e-\	.	8b-\	.	8dd-\	.	.	.	.	.	.	.	.	.	.	.	.	.	.	.
8E-\	.	8E-\yy	.	4E-\	-mi-	4d-/	4B-\	.	.	4e-/	.	.	4g/	-mi-	.	8r	.	8r	.	8r	.	4G\ 4E-\	4e-\ 4B-\	.	4B-\ 4E-\	.	4e-/ 4E-/	.	4g/ 4d-/)	4ryy	.	4dd-\	.	4gg\	.
8r	.	8ryy	.	.	.	.	.	.	.	.	.	.	.	.	.	8e-\ 8B-\	.	8e-/ 8d-/	.	8g/	.	.	.	.	.	.	.	.	.	.	.	.	.	.	.
*	*	*	*	*	*	*v	*v	*	*	*	*	*	*	*	*	*	*	*	*	*	*	*	*	*	*	*	*	*	*	*	*	*	*	*	*
!!LO:PB:g=original
=39	=39	=39	=39	=39	=39	=39	=39	=39	=39	=39	=39	=39	=39	=39	=39	=39	=39	=39	=39	=39	=39	=39	=39	=39	=39	=39	=39	=39	=39	=39	=39	=39	=39	=39
*	*	*	*	*	*	*	*	*	*	*	*	*	*	*	*	*	*	*	*	*	*	*^	*	*	*	*	*	*	*	*	*	*	*	*
4AA-/	.	4AA-/yy	.	4A-\	-ni	4c\	.	.	4e-/	.	.	4a-/	-ni	.	4e-/ 4A-/	.	4e-/ 4c/	.	4a-/	.	4A-\ 4AA-\	4e-/	4c\	.	4A-\ 4AA-\	.	4e-/ 4E-/	.	4a-/	4c\	.	4cc\	.	4aa-\	.
!	!	!	!	!	!	!	!	!	!	!	!	!LO:TX:a:i:t=Solo	!	!	!	!	!	!	!	!	!	!	!	!	!	!	!	!	!	!	!LO:DY:rj	!	!	!	!
4r	.	4ryy	.	4r	.	4r	.	.	4r	.	.	(8aa-\L	O-	.	4r	.	4r	.	4r	.	4r	4r	4ryy	.	2.c\ 2.A-\	.	4r	.	2.a-/	2.e-\	p	4r	.	4r	.
.	.	.	.	.	.	.	.	.	.	.	.	8gg\J)	.	.	.	.	.	.	.	.	.	.	.	.	.	.	.	.	.	.	.	.	.	.	.
2r	.	2ryy	.	2r	.	2r	.	.	2r	.	.	(8ff\L	-san-	.	2r	.	2r	.	2r	.	2r	2r	2ryy	.	.	.	2r	.	.	.	.	2r	.	2r	.
.	.	.	.	.	.	.	.	.	.	.	.	8ee-\	.	.	.	.	.	.	.	.	.	.	.	.	.	.	.	.	.	.	.	.	.	.	.
.	.	.	.	.	.	.	.	.	.	.	.	8dd-\	.	.	.	.	.	.	.	.	.	.	.	.	.	.	.	.	.	.	.	.	.	.	.
.	.	.	.	.	.	.	.	.	.	.	.	8cc\J)	.	.	.	.	.	.	.	.	.	.	.	.	.	.	.	.	.	.	.	.	.	.	.
*	*	*	*	*	*	*	*	*	*	*	*	*	*	*	*	*	*	*	*	*	*	*v	*v	*	*	*	*	*	*	*	*	*	*	*	*
=40	=40	=40	=40	=40	=40	=40	=40	=40	=40	=40	=40	=40	=40	=40	=40	=40	=40	=40	=40	=40	=40	=40	=40	=40	=40	=40	=40	=40	=40	=40	=40	=40	=40	=40
4D-\	.	4D-\yy	.	1r	.	1r	.	.	1r	.	.	4b-\	-na	.	4f\ 4d-\	.	4d-/	.	4b-\	.	1r	1r	.	4r	.	1r	.	4r	4ryy	.	1r	.	1r	.
4r	.	4ryy	.	.	.	.	.	.	.	.	.	(8gg\L	O-	.	4r	.	4r	.	4r	.	.	.	.	2.B-\ 2.D-\	.	.	.	2.b-/	2.f\	.	.	.	.	.
.	.	.	.	.	.	.	.	.	.	.	.	8ff\J)	.	.	.	.	.	.	.	.	.	.	.	.	.	.	.	.	.	.	.	.	.	.
2r	.	2ryy	.	.	.	.	.	.	.	.	.	(8ee-\L	-san-	.	2r	.	2r	.	2r	.	.	.	.	.	.	.	.	.	.	.	.	.	.	.
.	.	.	.	.	.	.	.	.	.	.	.	8dd-\	.	.	.	.	.	.	.	.	.	.	.	.	.	.	.	.	.	.	.	.	.	.
.	.	.	.	.	.	.	.	.	.	.	.	8cc\	.	.	.	.	.	.	.	.	.	.	.	.	.	.	.	.	.	.	.	.	.	.
.	.	.	.	.	.	.	.	.	.	.	.	8b-\J)	.	.	.	.	.	.	.	.	.	.	.	.	.	.	.	.	.	.	.	.	.	.
=41	=41	=41	=41	=41	=41	=41	=41	=41	=41	=41	=41	=41	=41	=41	=41	=41	=41	=41	=41	=41	=41	=41	=41	=41	=41	=41	=41	=41	=41	=41	=41	=41	=41	=41
4E-\	.	4E-\yy	.	1r	.	1r	.	.	1r	.	.	4a-/	-na	.	4e-/ 4A-/	.	4c/	.	4a-/	.	1r	1r	.	4r	.	1r	.	4r	4ryy	.	1r	.	1r	.
4r	.	4ryy	.	.	.	.	.	.	.	.	.	(8ff\L	O-	.	4r	.	4r	.	4r	.	.	.	.	2.c\ 2.E-\	.	.	.	2.a-/	2.e-\	.	.	.	.	.
.	.	.	.	.	.	.	.	.	.	.	.	8ee-\J)	.	.	.	.	.	.	.	.	.	.	.	.	.	.	.	.	.	.	.	.	.	.
2r	.	2ryy	.	.	.	.	.	.	.	.	.	(8dd-\L	-san-	.	2r	.	2r	.	2r	.	.	.	.	.	.	.	.	.	.	.	.	.	.	.
.	.	.	.	.	.	.	.	.	.	.	.	8cc\	.	.	.	.	.	.	.	.	.	.	.	.	.	.	.	.	.	.	.	.	.	.
.	.	.	.	.	.	.	.	.	.	.	.	8b-\	.	.	.	.	.	.	.	.	.	.	.	.	.	.	.	.	.	.	.	.	.	.
.	.	.	.	.	.	.	.	.	.	.	.	8a-\J)	.	.	.	.	.	.	.	.	.	.	.	.	.	.	.	.	.	.	.	.	.	.
=42	=42	=42	=42	=42	=42	=42	=42	=42	=42	=42	=42	=42	=42	=42	=42	=42	=42	=42	=42	=42	=42	=42	=42	=42	=42	=42	=42	=42	=42	=42	=42	=42	=42	=42
4E-\	.	4E-\yy	.	1r	.	1r	.	.	1r	.	.	4g/	-na	.	4e-\	.	4B-/	.	4g/	.	1r	1r	.	4r	.	1r	.	4r	4ryy	.	1r	.	1r	.
4r	.	4ryy	.	.	.	.	.	.	.	.	.	(8ee-\L	in	.	4r	.	4r	.	4r	.	.	.	.	2.d-\ 2.E-\	.	.	.	2.g/	2.e-\	.	.	.	.	.
.	.	.	.	.	.	.	.	.	.	.	.	8dd-\J)	.	.	.	.	.	.	.	.	.	.	.	.	.	.	.	.	.	.	.	.	.	.
2r	.	2ryy	.	.	.	.	.	.	.	.	.	(8cc\L	ex-	.	2r	.	2r	.	2r	.	.	.	.	.	.	.	.	.	.	.	.	.	.	.
.	.	.	.	.	.	.	.	.	.	.	.	8b-\J)	.	.	.	.	.	.	.	.	.	.	.	.	.	.	.	.	.	.	.	.	.	.
.	.	.	.	.	.	.	.	.	.	.	.	(>8a-/L	-cael-	.	.	.	.	.	.	.	.	.	.	.	.	.	.	.	.	.	.	.	.	.
.	.	.	.	.	.	.	.	.	.	.	.	8g/J)	.	.	.	.	.	.	.	.	.	.	.	.	.	.	.	.	.	.	.	.	.	.
*	*	*	*	*	*	*	*	*	*	*	*	*	*	*	*	*	*	*	*	*	*	*	*	*	*	*	*	*v	*v	*	*	*	*	*
!!LO:PB:g=original
=43	=43	=43	=43	=43	=43	=43	=43	=43	=43	=43	=43	=43	=43	=43	=43	=43	=43	=43	=43	=43	=43	=43	=43	=43	=43	=43	=43	=43	=43	=43	=43	=43	=43
*	*	*	*	*	*	*	*	*	*	*	*	*	*	*	*	*	*	*	*	*	*	*	*	*	*	*^	*	*	*	*	*	*	*
8AA-/	.	8AA-/yy	.	1r	.	1r	.	.	1r	.	.	4a-/	-sis	.	8r	.	8r	.	8r	.	1r	1r	.	4r	.	4r	4ryy	.	1r	.	2r	.	2r	.
8r	.	8ryy	.	.	.	.	.	.	.	.	.	.	.	.	8e-\ 8A-\	.	8c/	.	8a-/	.	.	.	.	.	.	.	.	.	.	.	.	.	.	.
*rep	*	*repy	*	*	*	*	*	*	*	*	*	*	*	*	*rep	*	*rep	*	*rep	*	*	*	*	*	*	*	*	*	*	*	*	*	*	*
!	!	!	!	!	!	!	!	!	!	!	!	!	!	!	!	!	!	!	!	!	!	!	!	!	!	!	!	!LO:DY:rj	!	!	!	!	!	!
8AA-/	.	8AA-/yy	.	.	.	.	.	.	.	.	.	(8aa-\L	O-	.	8r	.	8r	.	8r	.	.	.	.	2.c\ 2.A-\	.	2.a-/	2.e-\	p	.	.	.	.	.	.
8r	.	8ryy	.	.	.	.	.	.	.	.	.	8gg\J)	.	.	8e-\ 8A-\	.	8c/	.	8a-/	.	.	.	.	.	.	.	.	.	.	.	.	.	.	.
!	!	!	!	!	!	!	!	!	!	!	!	!	!	!	!	!	!	!	!	!	!	!	!	!	!	!	!	!	!	!	!	!LO:DY:a:rj	!	!
.	.	.	.	.	.	.	.	.	.	.	.	(>(16qqff/LL	.	.	.	.	.	.	.	.	.	.	.	.	.	.	.	.	.	.	(16qqff/LL	p	(16qqfff/LL	.
.	.	.	.	.	.	.	.	.	.	.	.	16qqgg/JJ	.	.	.	.	.	.	.	.	.	.	.	.	.	.	.	.	.	.	16qqgg/JJ	.	16qqggg/JJ	.
*Xrep	*	*Xrep	*	*	*	*	*	*	*	*	*	*	*	*	*Xrep	*	*Xrep	*	*Xrep	*	*	*	*	*	*	*	*	*	*	*	*	*	*	*
*rep	*	*repy	*	*	*	*	*	*	*	*	*	*	*	*	*rep	*	*rep	*	*rep	*	*	*	*	*	*	*	*	*	*	*	*	*	*	*
8AA-/	.	8AA-/yy	.	.	.	.	.	.	.	.	.	8ff\L)	-san-	.	8r	.	8r	.	8r	.	.	.	.	.	.	.	.	.	.	.	8ff\L)	.	8fff\L)	.
8r	.	8ryy	.	.	.	.	.	.	.	.	.	8ee-\)	.	.	8e-\ 8A-\	.	8c/	.	8a-/	.	.	.	.	.	.	.	.	.	.	.	8ee-'\J	.	8eee-'\J	.
.	.	.	.	.	.	.	.	.	.	.	.	(>16qqdd-/LL	.	.	.	.	.	.	.	.	.	.	.	.	.	.	.	.	.	.	(16qqdd-/LL	.	(16qqddd-/LL	.
.	.	.	.	.	.	.	.	.	.	.	.	16qqee-/JJ	.	.	.	.	.	.	.	.	.	.	.	.	.	.	.	.	.	.	16qqee-/JJ	.	16qqeee-/JJ	.
*Xrep	*	*Xrep	*	*	*	*	*	*	*	*	*	*	*	*	*Xrep	*	*Xrep	*	*Xrep	*	*	*	*	*	*	*	*	*	*	*	*	*	*	*
*rep	*	*repy	*	*	*	*	*	*	*	*	*	*	*	*	*rep	*	*rep	*	*rep	*	*	*	*	*	*	*	*	*	*	*	*	*	*	*
8AA-/	.	8AA-/yy	.	.	.	.	.	.	.	.	.	8dd-\	.	.	8r	.	8r	.	8r	.	.	.	.	.	.	.	.	.	.	.	8dd-\L)	.	8ddd-\L)	.
8r	.	8ryy	.	.	.	.	.	.	.	.	.	8cc\J)	.	.	8e-\ 8A-\	.	8c/	.	8a-/	.	.	.	.	.	.	.	.	.	.	.	8cc'\J	.	8ccc'\J	.
*Xrep	*	*Xrep	*	*	*	*	*	*	*	*	*	*	*	*	*Xrep	*	*Xrep	*	*Xrep	*	*	*	*	*	*	*	*	*	*	*	*	*	*	*
=44	=44	=44	=44	=44	=44	=44	=44	=44	=44	=44	=44	=44	=44	=44	=44	=44	=44	=44	=44	=44	=44	=44	=44	=44	=44	=44	=44	=44	=44	=44	=44	=44	=44	=44
8D-\	.	8D-\yy	.	1ryy	.	1ryy	.	.	1ryy	.	.	4b-\	-na	.	8r	.	8r	.	8r	.	1r	1r	.	4r	.	4r	4ryy	.	1r	.	4b-\	.	4bb-\	.
8r	.	8ryy	.	.	.	.	.	.	.	.	.	.	.	.	8f\ 8d-\	.	8d-/	.	8b-/	.	.	.	.	.	.	.	.	.	.	.	.	.	.	.
*rep	*	*repy	*	*	*	*	*	*	*	*	*	*	*	*	*rep	*	*rep	*	*rep	*	*	*	*	*	*	*	*	*	*	*	*	*	*	*
8D-\	.	8D-\yy	.	.	.	.	.	.	.	.	.	(8gg\L	O-	.	8r	.	8r	.	8r	.	.	.	.	2.B-\ 2.D-\	.	2.b-/	2.f\	.	.	.	4r	.	4r	.
8r	.	8ryy	.	.	.	.	.	.	.	.	.	8ff\J)	.	.	8f\ 8d-\	.	8d-/	.	8b-/	.	.	.	.	.	.	.	.	.	.	.	.	.	.	.
.	.	.	.	.	.	.	.	.	.	.	.	(>(16qqee-/LL	.	.	.	.	.	.	.	.	.	.	.	.	.	.	.	.	.	.	(16qqee-/LL	.	(16qqeee-/LL	.
.	.	.	.	.	.	.	.	.	.	.	.	16qqff/JJ	.	.	.	.	.	.	.	.	.	.	.	.	.	.	.	.	.	.	16qqff/JJ	.	16qqfff/JJ	.
*Xrep	*	*Xrep	*	*	*	*	*	*	*	*	*	*	*	*	*Xrep	*	*Xrep	*	*Xrep	*	*	*	*	*	*	*	*	*	*	*	*	*	*	*
*rep	*	*repy	*	*	*	*	*	*	*	*	*	*	*	*	*rep	*	*rep	*	*rep	*	*	*	*	*	*	*	*	*	*	*	*	*	*	*
8D-\	.	8D-\yy	.	.	.	.	.	.	.	.	.	8ee-\L)	-san-	.	8r	.	8r	.	8r	.	.	.	.	.	.	.	.	.	.	.	8ee-\L)	.	8eee-\L)	.
8r	.	8ryy	.	.	.	.	.	.	.	.	.	8dd-\	.	.	8f\ 8d-\	.	8d-/	.	8b-/	.	.	.	.	.	.	.	.	.	.	.	8dd-'\J	.	8ddd-'\J	.
.	.	.	.	.	.	.	.	.	.	.	.	(16qqcc/LL	.	.	.	.	.	.	.	.	.	.	.	.	.	.	.	.	.	.	(16qqcc/LL	.	(16qqccc/LL	.
.	.	.	.	.	.	.	.	.	.	.	.	16qqdd-/JJ	.	.	.	.	.	.	.	.	.	.	.	.	.	.	.	.	.	.	16qqdd-/JJ	.	16qqddd-/JJ	.
*Xrep	*	*Xrep	*	*	*	*	*	*	*	*	*	*	*	*	*Xrep	*	*Xrep	*	*Xrep	*	*	*	*	*	*	*	*	*	*	*	*	*	*	*
*rep	*	*repy	*	*	*	*	*	*	*	*	*	*	*	*	*rep	*	*rep	*	*rep	*	*	*	*	*	*	*	*	*	*	*	*	*	*	*
8D-\	.	8D-\yy	.	.	.	.	.	.	.	.	.	8cc\)	.	.	8r	.	8r	.	8r	.	.	.	.	.	.	.	.	.	.	.	8cc\L)	.	8ccc\L)	.
8r	.	8ryy	.	.	.	.	.	.	.	.	.	8b-\J)	.	.	8f\ 8d-\	.	8d-/	.	8b-/	.	.	.	.	.	.	.	.	.	.	.	8b-'\J	.	8bb-'\J	.
*Xrep	*	*Xrep	*	*	*	*	*	*	*	*	*	*	*	*	*Xrep	*	*Xrep	*	*Xrep	*	*	*	*	*	*	*	*	*	*	*	*	*	*	*
=45	=45	=45	=45	=45	=45	=45	=45	=45	=45	=45	=45	=45	=45	=45	=45	=45	=45	=45	=45	=45	=45	=45	=45	=45	=45	=45	=45	=45	=45	=45	=45	=45	=45	=45
8E-\	.	8E-\yy	.	1ryy	.	1ryy	.	.	1ryy	.	.	4a-/	-na	.	8r	.	8r	.	8r	.	1r	1r	.	4r	.	4r	4ryy	.	1r	.	4a-/	.	4aa-\	.
8r	.	8ryy	.	.	.	.	.	.	.	.	.	.	.	.	8e-\	.	8c/	.	8a-/	.	.	.	.	.	.	.	.	.	.	.	.	.	.	.
*rep	*	*repy	*	*	*	*	*	*	*	*	*	*	*	*	*rep	*	*rep	*	*rep	*	*	*	*	*	*	*	*	*	*	*	*	*	*	*
8E-\	.	8E-\yy	.	.	.	.	.	.	.	.	.	(8ff\L	O-	.	8r	.	8r	.	8r	.	.	.	.	2.c\ 2.E-\	.	2.a-/	2.e-\	.	.	.	4r	.	4r	.
8r	.	8ryy	.	.	.	.	.	.	.	.	.	8ee-\J)	.	.	8e-\	.	8c/	.	8a-/	.	.	.	.	.	.	.	.	.	.	.	.	.	.	.
.	.	.	.	.	.	.	.	.	.	.	.	(>16qqdd-/LL	.	.	.	.	.	.	.	.	.	.	.	.	.	.	.	.	.	.	(16qqdd-/LL	.	(16qqddd-/LL	.
.	.	.	.	.	.	.	.	.	.	.	.	16qqee-/JJ	.	.	.	.	.	.	.	.	.	.	.	.	.	.	.	.	.	.	16qqee-/JJ	.	16qqeee-/JJ	.
*Xrep	*	*Xrep	*	*	*	*	*	*	*	*	*	*	*	*	*Xrep	*	*Xrep	*	*Xrep	*	*	*	*	*	*	*	*	*	*	*	*	*	*	*
*rep	*	*repy	*	*	*	*	*	*	*	*	*	*	*	*	*rep	*	*rep	*	*rep	*	*	*	*	*	*	*	*	*	*	*	*	*	*	*
8E-\	.	8E-\yy	.	.	.	.	.	.	.	.	.	8dd-\L	-sa-	.	8r	.	8r	.	8r	.	.	.	.	.	.	.	.	.	.	.	8dd-\L)	.	8ddd-\L)	.
8r	.	8ryy	.	.	.	.	.	.	.	.	.	8cc\J	.	.	8e-\	.	8c/	.	8a-/	.	.	.	.	.	.	.	.	.	.	.	8cc'\J	.	8ccc'\J	.
.	.	.	.	.	.	.	.	.	.	.	.	16qqb-/LL	.	.	.	.	.	.	.	.	.	.	.	.	.	.	.	.	.	.	(16qqb-/LL	.	(16qqbb-/LL	.
.	.	.	.	.	.	.	.	.	.	.	.	16qqcc/JJ	.	.	.	.	.	.	.	.	.	.	.	.	.	.	.	.	.	.	16qqcc/JJ	.	16qqccc/JJ	.
*Xrep	*	*Xrep	*	*	*	*	*	*	*	*	*	*	*	*	*Xrep	*	*Xrep	*	*Xrep	*	*	*	*	*	*	*	*	*	*	*	*	*	*	*
*rep	*	*repy	*	*	*	*	*	*	*	*	*	*	*	*	*rep	*	*rep	*	*rep	*	*	*	*	*	*	*	*	*	*	*	*	*	*	*
8E-\L	.	8E-\Lyy	.	.	.	.	.	.	.	.	.	8b-\L	.	.	8r	.	8r	.	8r	.	.	.	.	.	.	.	.	.	.	.	8b-/L)	.	8bb-\L)	.
8r	.	8ryy	.	.	.	.	.	.	.	.	.	8a-\J)	.	.	8e-\	.	8c/	.	8a-/	.	.	.	.	.	.	.	.	.	.	.	8a-'/J	.	8aa-'\J	.
*Xrep	*	*Xrep	*	*	*	*	*	*	*	*	*	*	*	*	*Xrep	*	*Xrep	*	*Xrep	*	*	*	*	*	*	*	*	*	*	*	*	*	*	*
=46	=46	=46	=46	=46	=46	=46	=46	=46	=46	=46	=46	=46	=46	=46	=46	=46	=46	=46	=46	=46	=46	=46	=46	=46	=46	=46	=46	=46	=46	=46	=46	=46	=46	=46
8EE-/	.	8EE-/yy	.	1ryy	.	1ryy	.	.	1ryy	.	.	4g/	-na	.	8r	.	8r	.	8r	.	1r	1r	.	4r	.	4r	4ryy	.	1r	.	4g/	.	4gg\	.
8r	.	8ryy	.	.	.	.	.	.	.	.	.	.	.	.	8e-\ 8B-\	.	8d-/	.	8g/	.	.	.	.	.	.	.	.	.	.	.	.	.	.	.
*rep	*	*repy	*	*	*	*	*	*	*	*	*	*	*	*	*rep	*	*rep	*	*rep	*	*	*	*	*	*	*	*	*	*	*	*	*	*	*
8EE-/	.	8EE-/yy	.	.	.	.	.	.	.	.	.	8ee-\	in	.	8r	.	8r	.	8r	.	.	.	.	2.d-\ 2.E-\	.	2.g/	2.e-\	.	.	.	4r	.	4r	.
8r	.	8ryy	.	.	.	.	.	.	.	.	.	8dd-\	ex	.	8e-\ 8B-\	.	8d-/	.	8g/	.	.	.	.	.	.	.	.	.	.	.	.	.	.	.
.	.	.	.	.	.	.	.	.	.	.	.	(>(16qqcc/LL	.	.	.	.	.	.	.	.	.	.	.	.	.	.	.	.	.	.	(16qqcc/LL	.	(16qqccc/LL	.
.	.	.	.	.	.	.	.	.	.	.	.	16qqdd-/JJ	.	.	.	.	.	.	.	.	.	.	.	.	.	.	.	.	.	.	16qqdd-/JJ	.	16qqddd-/JJ	.
*Xrep	*	*Xrep	*	*	*	*	*	*	*	*	*	*	*	*	*Xrep	*	*Xrep	*	*Xrep	*	*	*	*	*	*	*	*	*	*	*	*	*	*	*
*rep	*	*repy	*	*	*	*	*	*	*	*	*	*	*	*	*rep	*	*rep	*	*rep	*	*	*	*	*	*	*	*	*	*	*	*	*	*	*
8EE-/	.	8EE-/yy	.	.	.	.	.	.	.	.	.	8cc\L)	coel-	.	8r	.	8r	.	8r	.	.	.	.	.	.	.	.	.	.	.	8cc\L)	.	8ccc\L)	.
8r	.	8ryy	.	.	.	.	.	.	.	.	.	8b-\	.	.	8e-\ 8B-\	.	8d-/	.	8g/	.	.	.	.	.	.	.	.	.	.	.	8b-'\J	.	8bb-'\J	.
.	.	.	.	.	.	.	.	.	.	.	.	16qqa-/LL	.	.	.	.	.	.	.	.	.	.	.	.	.	.	.	.	.	.	(16qqa-/LL	.	(16qqaa-/LL	.
.	.	.	.	.	.	.	.	.	.	.	.	16qqb-/JJ	.	.	.	.	.	.	.	.	.	.	.	.	.	.	.	.	.	.	16qqb-/JJ	.	16qqbb-/JJ	.
*Xrep	*	*Xrep	*	*	*	*	*	*	*	*	*	*	*	*	*Xrep	*	*Xrep	*	*Xrep	*	*	*	*	*	*	*	*	*	*	*	*	*	*	*
*rep	*	*repy	*	*	*	*	*	*	*	*	*	*	*	*	*rep	*	*rep	*	*rep	*	*	*	*	*	*	*	*	*	*	*	*	*	*	*
8EE-/	.	8EE-/yy	.	.	.	.	.	.	.	.	.	8a-\	.	.	8r	.	8r	.	8r	.	.	.	.	.	.	.	.	.	.	.	8a-/L)	.	8aa-\L)	.
8r	.	8ryy	.	.	.	.	.	.	.	.	.	8g\J)	.	.	8e-\ 8B-\	.	8d-/	.	8g/	.	.	.	.	.	.	.	.	.	.	.	8g'/J	.	8gg'\J	.
*Xrep	*	*Xrep	*	*	*	*	*	*	*	*	*	*	*	*	*Xrep	*	*Xrep	*	*Xrep	*	*	*	*	*	*	*	*	*	*	*	*	*	*	*
*	*	*	*	*	*	*	*	*	*	*	*	*	*	*	*	*	*	*	*	*	*	*	*	*	*	*v	*v	*	*	*	*	*	*	*
!!LO:PB:g=original
=47	=47	=47	=47	=47	=47	=47	=47	=47	=47	=47	=47	=47	=47	=47	=47	=47	=47	=47	=47	=47	=47	=47	=47	=47	=47	=47	=47	=47	=47	=47	=47	=47	=47
8AA-/	.	8AA-/	.	8r	.	1r	.	.	1r	.	.	8a-/	-sis	.	8e-\ 8A-\	.	8c/	.	8a-/	.	1r	1r	.	8c\ 8A-\	.	8a-\ 8e-\	.	1r	.	8a-/	.	8aa-\	.
!	!	!	!	!LO:TX:a:i:t=Solo	!	!	!	!	!	!	!	!LO:TX:a:i:t=Solo	!	!	!	!	!	!	!	!	!	!	!	!	!	!	!	!	!	!	!	!	!
8r	.	(8e-\L	.	(8e-\L	O-	.	.	.	.	.	.	(8e-/L	O-	.	8r	.	8r	.	(8e-/L	.	.	.	.	8r	.	8r	.	.	.	8r	.	8r	.
4r	.	8dn\	.	8dn\	.	.	.	.	.	.	.	8f/	.	.	4r	.	4r	.	8f/	.	.	.	.	4r	.	4r	.	.	.	4r	.	4r	.
.	.	(8d-X\J)	.	8d-X\J)	.	.	.	.	.	.	.	8g/J)	.	.	.	.	.	.	8g/J	.	.	.	.	.	.	.	.	.	.	.	.	.	.
2r	.	8c\L	.	(8c\L	-san-	.	.	.	.	.	.	(8a-/L	-san-	.	2r	.	2r	.	8a-/L	.	.	.	.	2r	.	2r	.	.	.	2r	.	2r	.
.	.	8d-\	.	8d-\	.	.	.	.	.	.	.	8g/	.	.	.	.	.	.	8g/	.	.	.	.	.	.	.	.	.	.	.	.	.	.
.	.	8c\	.	8c\	.	.	.	.	.	.	.	8a-/	.	.	.	.	.	.	8a-/	.	.	.	.	.	.	.	.	.	.	.	.	.	.
.	.	8G\J	.	8G\J)	.	.	.	.	.	.	.	8b-/J)	.	.	.	.	.	.	8b-/J	.	.	.	.	.	.	.	.	.	.	.	.	.	.
=48	=48	=48	=48	=48	=48	=48	=48	=48	=48	=48	=48	=48	=48	=48	=48	=48	=48	=48	=48	=48	=48	=48	=48	=48	=48	=48	=48	=48	=48	=48	=48	=48	=48
1r	.	8A-\L)	.	8A-\	-na	1r	.	.	1r	.	.	8cc\	-na	.	1r	.	1r	.	8cc/L)	.	1r	1r	.	1r	.	1r	.	1r	.	1r	.	1r	.
.	.	(8d-\	.	(8d-\L	O-	.	.	.	.	.	.	(8g/L	o-	.	.	.	.	.	(8g/	.	.	.	.	.	.	.	.	.	.	.	.	.	.
.	.	8c\	.	8c\	.	.	.	.	.	.	.	8a-/	.	.	.	.	.	.	8a-/	.	.	.	.	.	.	.	.	.	.	.	.	.	.
.	.	8G\J	.	8G\J)	.	.	.	.	.	.	.	8b-/J)	.	.	.	.	.	.	8b-/J)	.	.	.	.	.	.	.	.	.	.	.	.	.	.
.	.	(8A-\L)	.	(8A-\L	-san-	.	.	.	.	.	.	(8cc\L	-san-	.	.	.	.	.	(8cc\L	.	.	.	.	.	.	.	.	.	.	.	.	.	.
.	.	8G\J)	.	8G\J)	.	.	.	.	.	.	.	8b-\J)	.	.	.	.	.	.	8b-\)	.	.	.	.	.	.	.	.	.	.	.	.	.	.
.	.	(8A-\L	.	(8A-\L	-na	.	.	.	.	.	.	(8cc\L	-na	.	.	.	.	.	(8cc\	.	.	.	.	.	.	.	.	.	.	.	.	.	.
.	.	8F\J)	.	8F\J)	.	.	.	.	.	.	.	8dd-\J)	.	.	.	.	.	.	8dd-\J)	.	.	.	.	.	.	.	.	.	.	.	.	.	.
=49	=49	=49	=49	=49	=49	=49	=49	=49	=49	=49	=49	=49	=49	=49	=49	=49	=49	=49	=49	=49	=49	=49	=49	=49	=49	=49	=49	=49	=49	=49	=49	=49	=49
*	*	*	*	*	*	*	*	*	*	*	*	*	*	*	*	*	*	*	*	*	*	*	*	*	*	*^	*	*^	*	*	*	*	*
*	*	*	*	*	*	*	*	*	*	*	*	*	*	*	*tremolo	*	*	*	*	*	*	*	*	*	*	*	*	*	*	*	*	*	*	*	*
!	!LO:DY:rj	!	!LO:DY:rj	!LO:TX:a:i:t=tutti	!	!	!	!	!	!	!	!LO:TX:a:i:t=tutti	!	!	!	!	!	!LO:DY:rj	!	!LO:DY:rj	!	!	!	!	!LO:DY:rj	!	!	!	!	!	!LO:DY:rj	!	!	!	!LO:DY:rj
8E-\L	f	8E-\Lyy	fy	(4E-\	O-	[4A-\	.	.	(4cc\	O-	.	(4ee-\	O-	.	8A-/L	.	8cc\L	f	8ee-\L	f	1r	1r	.	4c\ 4E-'\	f	4e-/	4e-\	.	(4cc/	2a-\	f	(4ee-\	.	(4eee-\	f <
!	!LO:HP:a	!	!LO:HP:a	!	!	!	!	!	!	!	!	!	!	!	!	!	!	!	!	!	!	!	!	!	!	!	!	!	!	!	!	!	!	!	!
8E-\J	<	8E-\Jyy	<	.	.	.	.	.	.	.	.	.	.	.	8A-/	.	8cc\J	.	8ee-\J	<	.	.	.	.	.	.	.	.	.	.	.	.	.	.	.
8Dn\L	.	8Dn\Lyy	.	4Dn\)	.	4A-\]	.	.	4cc-X\)	.	.	4ff\)	.	.	8A-/	.	8cc-X\L	.	8ff\L	.	.	.	.	(4c-X\ 4Dn\	.	4f/	4d-\	.	4cc-X/	.	.	4ff\	.	4fff\	.
8D\J	.	8D\Jyy	.	.	.	.	.	.	.	.	.	.	.	.	8A-/J	.	8cc-\J	.	8ff\J	.	.	.	.	.	.	.	.	.	.	.	.	.	.	.	.
8D-X\L	.	8D-X\Lyy	.	4D-X\	-san-	4e-\	.	.	4b-\	-san-	.	4gg\	-san-	.	8e-\L	.	8b-\L	.	8gg\L	.	.	.	.	4B-\ 4D-X\	.	2e-/	2e-\	.	4b-/	4b-\	.	4gg\	.	4ggg\	.
8D-\J	.	8D-\Jyy	.	.	.	.	.	.	.	.	.	.	.	.	8e-\	.	8b-\J	.	8gg\J	.	.	.	.	.	.	.	.	.	.	.	.	.	.	.	.
8C/L	.	8C/Lyy	.	4C\	-na	4e-\	.	.	4a-/	-na	.	4aa-\	-na	.	8e-\	.	8a-/L	.	8aa-\L	.	.	.	.	4A-\ 4C\)	.	.	.	.	4a-/)	4a-\	.	4aa-\)	.	4aaa-\)	[
8C/J	[[	8C/Jyy	[[	.	.	.	.	.	.	.	.	.	.	.	8e-\J	.	8a-/J	.	8aa-\J	[	.	.	.	.	.	.	.	.	.	.	.	.	.	.	.
=50	=50	=50	=50	=50	=50	=50	=50	=50	=50	=50	=50	=50	=50	=50	=50	=50	=50	=50	=50	=50	=50	=50	=50	=50	=50	=50	=50	=50	=50	=50	=50	=50	=50	=50	=50
*	*	*	*	*	*	*	*	*	*	*	*	*	*	*	*	*	*	*	*	*	*	*^	*	*^	*	*	*	*	*	*	*	*	*	*	*
*tremolo	*	*tremolo	*	*	*	*	*	*	*	*	*	*	*	*	*	*	*tremolo	*	*tremolo	*	*	*	*	*	*	*	*	*	*	*	*	*	*	*	*	*	*
!	!	!	!	!	!	!	!	!	!	!	!	!	!	!	!	!	!	!	!	!	!	!	!	!LO:DY:rj	!	!	!	!	!	!	!	!	!	!	!	!	!
8D-\L	.	8D-\Lyy	.	2D-\	in	2d-\	.	.	2a-/	in	.	2ff\	in	.	8d-\L	.	8a-/L	.	8ff\L	.	2D-\	2f\ 2A-^<\	2ryy	f	2A-\ 2D-\	2ryy	.	2f^</	2f\	.	2a-^</	2a-\	.	2ff^<\	.	2fff^<\	.
8D-\	.	8D-\yy	.	.	.	.	.	.	.	.	.	.	.	.	8d-\	.	8a-/	.	8ff\	.	.	.	.	.	.	.	.	.	.	.	.	.	.	.	.	.	.
8D-\	.	8D-\yy	.	.	.	.	.	.	.	.	.	.	.	.	8d-\	.	8a-/	.	8ff\	.	.	.	.	.	.	.	.	.	.	.	.	.	.	.	.	.	.
8D-\J	.	8D-\Jyy	.	.	.	.	.	.	.	.	.	.	.	.	8d-\J	.	8a-/J	.	8ff\J	.	.	.	.	.	.	.	.	.	.	.	.	.	.	.	.	.	.
8F\L	.	8F\Lyy	.	2F\	ex-	2d-\	.	.	2a-/	ex	.	2dd-\	ex-	.	8d-\L	.	8a-/L	.	8dd-\L	.	2F\	2A-^<\	2d-/	.	2F\	2A-/	.	2f^</	2f\	.	2a-^</	2a-\	.	2dd-^<\	.	2ddd-^<\	.
8F\	.	8F\yy	.	.	.	.	.	.	.	.	.	.	.	.	8d-\	.	8a-/	.	8dd-\	.	.	.	.	.	.	.	.	.	.	.	.	.	.	.	.	.	.
8F\	.	8F\yy	.	.	.	.	.	.	.	.	.	.	.	.	8d-\	.	8a-/	.	8dd-\	.	.	.	.	.	.	.	.	.	.	.	.	.	.	.	.	.	.
8F\J	.	8F\Jyy	.	.	.	.	.	.	.	.	.	.	.	.	8d-\J	.	8a-/J	.	8dd-\J	.	.	.	.	.	.	.	.	.	.	.	.	.	.	.	.	.	.
!!LO:PB:g=original
=51	=51	=51	=51	=51	=51	=51	=51	=51	=51	=51	=51	=51	=51	=51	=51	=51	=51	=51	=51	=51	=51	=51	=51	=51	=51	=51	=51	=51	=51	=51	=51	=51	=51	=51	=51	=51	=51
8E-\L	.	8E-\Lyy	.	4.E-\	-cael-	4.e-\	.	.	4.a-/	.	.	4.cc\	-cael-	.	8e-\L	.	8a-/L	.	8cc\L	.	2.E-\	2.c/	2.A-\	.	2.A-/	2.E-\	.	2.e-/	2.e-\	.	2.a-/	2.a-\	.	2cc\	.	2ccc\	.
8E-\	.	8E-\yy	.	.	.	.	.	.	.	.	.	.	.	.	8e-\	.	8a-/	.	8cc\	.	.	.	.	.	.	.	.	.	.	.	.	.	.	.	.	.	.
8E-\	.	8E-\yy	.	.	.	.	.	.	.	.	.	.	.	.	8e-\	.	8a-/	.	8cc\	.	.	.	.	.	.	.	.	.	.	.	.	.	.	.	.	.	.
8E-\J	.	8E-\Jyy	.	8E-\	-sis	8e-\	.	.	8a-/	.	.	8cc\	-sis	.	8e-\J	.	8a-/J	.	8cc\J	.	.	.	.	.	.	.	.	.	.	.	.	.	.	.	.	.	.
8E-\L	.	8E-\Lyy	.	2E-\	De-	4e-\	.	.	(4a-/	.	.	(4b-\	De-	.	8e-\L	.	8a-/L	.	8b-\L	.	.	.	.	.	.	.	.	.	.	.	.	.	.	4b-\	.	4bb-\	.
8E-\J	.	8E-\Jyy	.	.	.	.	.	.	.	.	.	.	.	.	8e-\J	.	8a-/J	.	8b-\J	.	.	.	.	.	.	.	.	.	.	.	.	.	.	.	.	.	.
8EE-/L	.	8EE-/Lyy	.	.	.	4e-\	.	.	4g/)	.	.	4ee-\)	.	.	8d-\L	.	8g/L	.	8ee-\L	.	4E-\	4e-/	4G\	.	4G/ 4EE-/	4ryy	.	4e-/	4e-\	.	4b-/	4g\	.	4ee-\	.	4eee-\	.
8EE-/J	.	8EE-/Jyy	.	.	.	.	.	.	.	.	.	.	.	.	8d-\J	.	8g/J	.	8ee-\J	.	.	.	.	.	.	.	.	.	.	.	.	.	.	.	.	.	.
*	*	*	*	*	*	*	*	*	*	*	*	*	*	*	*	*	*	*	*	*	*	*	*	*	*v	*v	*	*	*	*	*	*	*	*	*	*	*
=52	=52	=52	=52	=52	=52	=52	=52	=52	=52	=52	=52	=52	=52	=52	=52	=52	=52	=52	=52	=52	=52	=52	=52	=52	=52	=52	=52	=52	=52	=52	=52	=52	=52	=52	=52	=52
8AA-/L	.	8AA-/Lyy	.	4A-\	-o	4c\	.	.	4a-/	.	.	4a-/	-o	.	8c\L	.	8a-/L	.	8a-/L	.	4AA-/	4c/	4A-\	.	4A-/ 4AA-/	.	4e-/	4e-\	.	4cc/	4a-\	.	4a-/	.	4aa-\	.
8AA-/J	.	8AA-/Jyy	.	.	.	.	.	.	.	.	.	.	.	.	8c\J	.	8a-/	.	8a-/J	.	.	.	.	.	.	.	.	.	.	.	.	.	.	.	.	.
8D-\L	.	8D-\Lyy	.	(4D-\	in	(4d-\	.	.	2a-/	.	.	(4ff\	in	.	8d-\L	.	8a-/	.	8ff\L	.	(4D-\	(4f/	2A-\	.	4D-/ 4DD-/	.	4f/	4f\	.	4dd-/	2a-\	.	(4ff\	.	(4fff\	.
8D-\J	.	8D-\Jyy	.	.	.	.	.	.	.	.	.	.	.	.	8d-\J	.	8a-/J	.	8ff\J	.	.	.	.	.	.	.	.	.	.	.	.	.	.	.	.	.
8E-\L	.	8E-\Lyy	.	4E-\)	.	4c\)	.	.	.	.	.	4ee-\)	.	.	8c\L	.	8a-/L	.	8ee-\L	.	4E-\	4e-/	.	.	4E-/ 4EE-/	.	4a-/	4e-\	.	4cc/	.	.	4ee-\	.	4eee-\	.
8E-\J	.	8E-\Jyy	.	.	.	.	.	.	.	.	.	.	.	.	8c\J	.	8a-/J	.	8ee-\J	.	.	.	.	.	.	.	.	.	.	.	.	.	.	.	.	.
8En\L	.	8En\Lyy	.	4En\	ex-	4B-\	.	.	4g/	.	.	4dd-\	ex-	.	8B-/L	.	8g/L	.	8dd-\L	.	4En\)	4d-/	4G\	.	4En/ 4EEn/	.	4g/	4eX\	.	4b-/	4g\	.	4dd-\)	.	4ddd-\)	.
8E\J	.	8E\Jyy	.	.	.	.	.	.	.	.	.	.	.	.	8B-/J	.	8g/J	.	8dd-\J	.	.	.	.	.	.	.	.	.	.	.	.	.	.	.	.	.
=53	=53	=53	=53	=53	=53	=53	=53	=53	=53	=53	=53	=53	=53	=53	=53	=53	=53	=53	=53	=53	=53	=53	=53	=53	=53	=53	=53	=53	=53	=53	=53	=53	=53	=53	=53	=53
*	*	*	*	*	*	*	*	*	*	*	*	*	*	*	*	*	*	*	*	*	*	*	*	*	*^	*	*	*	*	*	*	*	*	*	*	*
8F\L	.	8F\Lyy	.	4F\	-cael-	4A-\	.	.	4a-/	.	.	4cc\	-cael-	.	8A-/L	.	8a-/L	.	8cc\L	.	4F\	4c/)	4A-\	.	4F/ 4FF/	2.ryy	.	4a-/	4e-\	.	4cc/	4a-\	.	4cc\	.	4ccc\	.
8F\J	.	8F\Jyy	.	.	.	.	.	.	.	.	.	.	.	.	8A-/J	.	8a-/	.	8cc\J	.	.	.	.	.	.	.	.	.	.	.	.	.	.	.	.	.	.
8D-\L	.	8D-\Lyy	.	4D-\	-sis	4d-\	.	.	4a-/	.	.	4ff\	-sis	.	8d-\L	.	8a-/	.	8ff\L	.	(4D-\	(4f/	2A-\	.	4D-/ 4DD-/	.	.	2a-/	4f\	.	4dd-/	2a-\	.	(4ff\	.	(4fff\	.
8D-\J	.	8D-\Jyy	.	.	.	.	.	.	.	.	.	.	.	.	8d-\J	.	8a-/J	.	8ff\J	.	.	.	.	.	.	.	.	.	.	.	.	.	.	.	.	.	.
8E-\L	.	8E-\Lyy	.	2E-\	De-	(4c\	.	.	(4a-/	.	.	(4ee-\	De-	.	8c\L	.	8a-/L	.	8ee-\L	.	4E-\	4e-/	.	.	4E-/ 4EE-/	.	.	.	4e-\	.	4cc/	.	.	4ee-\	.	4eee-\	.
8E-\J	.	8E-\Jyy	.	.	.	.	.	.	.	.	.	.	.	.	8c\J	.	8a-/J	.	8ee-\J	.	.	.	.	.	.	.	.	.	.	.	.	.	.	.	.	.	.
8EE-/L	.	8EE-/Lyy	.	.	.	4d-\ 4B-\)	.	.	4e-/)	.	.	4g/)	.	.	8B-\L	.	8e-/L 8d-/	.	8g/L	.	4E-\)	4d-/)	4G\	.	4B-/ 4EE-/	4EE-\	.	4g/	4e-\	.	4dd-/	4b-\	.	4g/)	.	4gg\)	.
8EE-/J	.	8EE-/Jyy	.	.	.	.	.	.	.	.	.	.	.	.	8B-\J	.	8e-/J 8d-/	.	8g/J	.	.	.	.	.	.	.	.	.	.	.	.	.	.	.	.	.	.
*Xtremolo	*	*Xtremolo	*	*	*	*	*	*	*	*	*	*	*	*	*Xtremolo	*	*Xtremolo	*	*Xtremolo	*	*	*	*	*	*	*	*	*	*	*	*	*	*	*	*	*	*
*	*	*	*	*	*	*	*	*	*	*	*	*	*	*	*	*	*	*	*	*	*	*	*	*	*v	*v	*	*	*	*	*	*	*	*	*	*	*
=54	=54	=54	=54	=54	=54	=54	=54	=54	=54	=54	=54	=54	=54	=54	=54	=54	=54	=54	=54	=54	=54	=54	=54	=54	=54	=54	=54	=54	=54	=54	=54	=54	=54	=54	=54	=54
4AA-/	.	4AA-/yy	.	4A-\	-o.	4c\	.	.	4e-/	.	.	4a-/	-o.	.	4A-/	.	4e-/ 4c/	.	4a-/	.	4AA-/	4c/	4A-\	.	4c\ 4AA-\	.	4a-/	4e-\	.	4cc/	4a-\	.	4a-/	.	4aa-\	.
4r	.	4ryy	.	4r	.	4r	.	.	4r	.	.	4r	.	.	4r	.	4r	.	4r	.	4r	4r	4ryy	.	4r	.	4r	4ryy	.	4r	4ryy	.	4r	.	4r	.
!	!	!	!	!LO:TX:a:i:t=solo	!	!LO:TX:a:i:t=solo	!	!	!LO:TX:a:i:t=Solo	!	!	!LO:TX:a:i:t=Solo	!	!	!	!	!	!	!	!	!	!	!	!	!	!	!	!	!	!	!	!	!	!	!	!
!	!	!	!	!LO:TX:t=P:problem=brak początku ligatury	!	!LO:TX:t=P:problem=brak początku łuku	!	!	!LO:TX:t=P:problem=brak początku łuku	!	!	!LO:TX:t=P:problem=brak początku ligatury	!	!	!	!	!	!	!	!	!	!	!	!	!	!	!	!	!	!	!	!	!	!	!	!
2r	.	2ryy	.	[>2AA-/	in	(2F/	.	.	(2d-/	.	.	[2a-/	in	.	2r	.	2r	.	2r	.	2r	2r	2ryy	.	2r	.	2r	2ryy	.	2r	2ryy	.	2r	.	2r	.
*	*	*	*	*	*	*	*	*	*	*	*	*	*	*	*	*	*	*	*	*	*	*	*	*	*	*	*v	*v	*	*	*	*	*	*	*	*
*	*	*	*	*	*	*	*	*	*	*	*	*	*	*	*	*	*	*	*	*	*	*v	*v	*	*	*	*	*	*v	*v	*	*	*	*	*
!!LO:PB:g=original
=55	=55	=55	=55	=55	=55	=55	=55	=55	=55	=55	=55	=55	=55	=55	=55	=55	=55	=55	=55	=55	=55	=55	=55	=55	=55	=55	=55	=55	=55	=55	=55	=55	=55
1ryy	.	1ryyyy	.	2AA-/]	.	2E-/)	.	.	2c/)	.	.	2a-/]	.	.	1ryy	.	1ryy	.	1ryy	.	1ryy	1ryy	.	1ryy	.	1ryy	.	1ryy	.	1ryy	.	1ryy	.
.	.	.	.	2AA-/	ex-	2Dn/	.	.	2Bn/	.	.	2a-/	ex-	.	.	.	.	.	.	.	.	.	.	.	.	.	.	.	.	.	.	.	.
=56	=56	=56	=56	=56	=56	=56	=56	=56	=56	=56	=56	=56	=56	=56	=56	=56	=56	=56	=56	=56	=56	=56	=56	=56	=56	=56	=56	=56	=56	=56	=56	=56	=56
1ryy	.	1ryyyy	.	2AA-/	-cael-	2E-/	.	.	2c/	.	.	2a-/	-cael-	.	1ryy	.	1ryy	.	1ryy	.	1ryy	1ryy	.	1ryy	.	1ryy	.	1ryy	.	1ryy	.	1ryy	.
.	.	.	.	4AA-/	-sis	4A-/	.	.	4c/	.	.	4e-/	-sis	.	.	.	.	.	.	.	.	.	.	.	.	.	.	.	.	.	.	.	.
.	.	.	.	(4C/	De-	4A-/	.	.	4e-/	.	.	4a-/	De-	.	.	.	.	.	.	.	.	.	.	.	.	.	.	.	.	.	.	.	.
=57	=57	=57	=57	=57	=57	=57	=57	=57	=57	=57	=57	=57	=57	=57	=57	=57	=57	=57	=57	=57	=57	=57	=57	=57	=57	=57	=57	=57	=57	=57	=57	=57	=57
1ryy	.	1ryyyy	.	(2.E-\	.	(2.B-\	.	.	(2.d-/	.	.	(>4a-/	.	.	1ryy	.	1ryy	.	1ryy	.	1ryy	1ryy	.	1ryy	.	1ryy	.	1ryy	.	1ryy	.	1ryy	.
.	.	.	.	.	.	.	.	.	.	.	.	8g/L	.	.	.	.	.	.	.	.	.	.	.	.	.	.	.	.	.	.	.	.	.
.	.	.	.	.	.	.	.	.	.	.	.	8f/J	.	.	.	.	.	.	.	.	.	.	.	.	.	.	.	.	.	.	.	.	.
.	.	.	.	.	.	.	.	.	.	.	.	4.g/	.	.	.	.	.	.	.	.	.	.	.	.	.	.	.	.	.	.	.	.	.
.	.	.	.	8E-\L	.	8B-\L	.	.	8d-/L	.	.	.	.	.	.	.	.	.	.	.	.	.	.	.	.	.	.	.	.	.	.	.	.
.	.	.	.	8F\J))	.	8A-\J)	.	.	8c/J)	.	.	8a-/)	.	.	.	.	.	.	.	.	.	.	.	.	.	.	.	.	.	.	.	.	.
=58	=58	=58	=58	=58	=58	=58	=58	=58	=58	=58	=58	=58	=58	=58	=58	=58	=58	=58	=58	=58	=58	=58	=58	=58	=58	=58	=58	=58	=58	=58	=58	=58	=58
2r	.	2ryy	.	4F\	-o.	4A-\	.	.	4c/	.	.	4a-/	-o.	.	2r	.	2r	.	2r	.	1ryy	1ryy	.	1ryy	.	1ryy	.	1ryy	.	1ryy	.	1ryy	.
.	.	.	.	4r	.	4r	.	.	4r	.	.	4r	.	.	.	.	.	.	.	.	.	.	.	.	.	.	.	.	.	.	.	.	.
4.Dn\	>	4.Dn\yy	>	4.Dn\	in	4.A-\	in	.	4.Bn/	.	.	4.f/	in	.	4.A-/	.	4.Bn/	.	4.f^>/	.	.	.	.	.	.	.	.	.	.	.	.	.	.
8D\	]	8D\yy	]	8D\	ex-	8A-\	ex-	.	8B/	.	.	8f/	ex-	.	8A-/	.	8B/	.	8f/	.	.	.	.	.	.	.	.	.	.	.	.	.	.
=59	=59	=59	=59	=59	=59	=59	=59	=59	=59	=59	=59	=59	=59	=59	=59	=59	=59	=59	=59	=59	=59	=59	=59	=59	=59	=59	=59	=59	=59	=59	=59	=59	=59
[2E-\	.	[y2E-\yy	.	2E-\	-cael-	2A-\	-cael-	.	2c/	.	.	2e-/	-cael-	.	[2A-/	.	[2c/	.	(2e-/	.	1ryy	1ryy	.	1ryy	.	1ryy	.	1ryy	.	1ryy	.	1ryy	.
8E-\]	.	8E-\]yy	.	8E-\	-sis	8A-\	-sis	.	8c/	.	.	8c/	-sis	.	8A-/]	.	8c/]	.	8c/)	.	.	.	.	.	.	.	.	.	.	.	.	.	.
8r	.	8ryy	.	8r	.	(8A-\L	in	.	8r	.	.	8c/L	in	.	8r	.	8r	.	8r	.	.	.	.	.	.	.	.	.	.	.	.	.	.
4r	.	4ryy	.	4r	.	8c\J)	.	.	4r	.	.	8e-/J	.	.	4r	.	4r	.	4r	.	.	.	.	.	.	.	.	.	.	.	.	.	.
.	.	.	.	.	.	8c\	ex-	.	.	.	.	8a-/	ex-	.	.	.	.	.	.	.	.	.	.	.	.	.	.	.	.	.	.	.	.
=60	=60	=60	=60	=60	=60	=60	=60	=60	=60	=60	=60	=60	=60	=60	=60	=60	=60	=60	=60	=60	=60	=60	=60	=60	=60	=60	=60	=60	=60	=60	=60	=60	=60
!	!	!	!	!	!	!LO:TX:a:i:t=rall	!	!	!	!	!	!LO:TX:a:i:t=rall	!	!	!	!	!	!	!	!	!	!	!	!	!	!	!	!	!	!	!	!	!
2r	.	2ryy	.	2r	.	4.e-\	-cael-	.	2r	.	.	4.cc\	-cael-	.	2r	.	2r	.	2r	.	1ryy	1ryy	.	1ryy	.	1ryy	.	1ryy	.	1ryy	.	1ryy	.
.	.	.	.	.	.	8e-\	-sis	.	.	.	.	8cc\	-sis	.	.	.	.	.	.	.	.	.	.	.	.	.	.	.	.	.	.	.	.
4r	.	4ryy	.	4r	.	(4dn\	De	.	4r	.	.	(4bn\	De-	.	4r	.	4r	.	4r	.	.	.	.	.	.	.	.	.	.	.	.	.	.
!	!LO:DY:rj	!	!LO:DY:rj	!	!	!	!	!	!	!	!	!	!	!	!	!	!	!	!	!LO:DY:rj	!	!	!	!	!	!	!	!	!	!	!	!	!
4E-\	p	4E-\yy	py	4E-\	De-	4d-X\	.	.	(4g/	De-	.	4b-X\	.	.	(4d-\ (4B-\	.	(4d-/	.	(4g/	p	.	.	.	.	.	.	.	.	.	.	.	.	.
!!LO:PB:g=original
=61	=61	=61	=61	=61	=61	=61	=61	=61	=61	=61	=61	=61	=61	=61	=61	=61	=61	=61	=61	=61	=61	=61	=61	=61	=61	=61	=61	=61	=61	=61	=61	=61	=61
*	*	*	*	*	*	*	*	*	*	*	*	*	*	*	*	*	*	*	*	*	*	*	*	*	*	*^	*	*^	*	*	*	*	*
!	!	!	!	!	!	!LO:TX:t=P:problem=brak zakończenia łuku	!	!	!LO:TX:t=P:problem=brak zakończenia łuku	!	!	!LO:TX:t=P:problem=brak zakończenia łuku	!	!	!	!	!	!	!	!	!	!	!	!	!	!	!	!	!	!	!	!	!	!	!
4A-\	.	4A-\yy	.	4A-\	-o	4c\)	.	.	4a-/)	-o.	.	4a-/)	-o.	.	4e-\ 4A-\))	.	4c/)	.	4a-/)	.	2r	2r	.	2r	.	2r	2ryy	.	2r	2ryy	.	2r	.	2r	.
4r	f	4ryy	fy	4r	.	4r	.	.	4r	.	.	4r	.	.	4r	.	4r	.	4r	f	.	.	.	.	.	.	.	.	.	.	.	.	.	.	.
*tremolo	*	*tremolo	*	*	*	*	*	*	*	*	*	*	*	*	*tremolo	*	*tremolo	*	*tremolo	*	*	*	*	*	*	*	*	*	*	*	*	*	*	*	*
!	!	!	!	!	!	!	!	!LO:DY:rj	!	!	!	!	!	!LO:DY:b:rj	!	!	!	!	!	!	!	!	!LO:DY:rj	!	!	!	!	!	!	!	!LO:DY:rj	!	!	!	!LO:DY:rj
8D-\L	.	8D-\Lyy	.	2D-\	O-	2d-\	.	f	2a-/	.	.	2ff\	O-	f	8a-\L	.	8dd-\L	.	8ff\L	.	2D-\	2f\ 2A-\	f	2D-X\	.	2f/	2d-X\	.	2dd-/	2a-\	f	2ff\	.	(2fff\	f
8D-\	.	8D-\yy	.	.	.	.	.	.	.	.	.	.	.	.	8a-\	.	8dd-\	.	8ff\	.	.	.	.	.	.	.	.	.	.	.	.	.	.	.	.
8D-\	.	8D-\yy	.	.	.	.	.	.	.	.	.	.	.	.	8a-\	.	8dd-\	.	8ff\	.	.	.	.	.	.	.	.	.	.	.	.	.	.	.	.
8D-\J	.	8D-\Jyy	.	.	.	.	.	.	.	.	.	.	.	.	8a-\J	.	8dd-\J	.	8ff\J	.	.	.	.	.	.	.	.	.	.	.	.	.	.	.	.
=62	=62	=62	=62	=62	=62	=62	=62	=62	=62	=62	=62	=62	=62	=62	=62	=62	=62	=62	=62	=62	=62	=62	=62	=62	=62	=62	=62	=62	=62	=62	=62	=62	=62	=62	=62
*	*	*	*	*	*	*	*	*	*	*	*	*	*	*	*	*	*	*	*	*	*	*^	*	*	*	*	*	*	*	*	*	*	*	*	*
8E-\L	.	8E-\Lyy	.	(2E-\	-san-	2c\	.	.	(2a-/	.	.	(2ee-\	-san-	.	8a-\L	.	8cc\L	.	8ee-\L	.	2E-\	2e-/	2A-\	.	2E-\	.	2e-/	2e-\	.	2cc/	2a-\	.	2ee-\	.	2eee-\	.
8E-\	.	8E-\yy	.	.	.	.	.	.	.	.	.	.	.	.	8a-\	.	8cc\	.	8ee-\	.	.	.	.	.	.	.	.	.	.	.	.	.	.	.	.	.
8E-\	.	8E-\yy	.	.	.	.	.	.	.	.	.	.	.	.	8a-\	.	8cc\	.	8ee-\	.	.	.	.	.	.	.	.	.	.	.	.	.	.	.	.	.
8E-\J	.	8E-\Jyy	.	.	.	.	.	.	.	.	.	.	.	.	8a-\J	.	8cc\J	.	8ee-\J	.	.	.	.	.	.	.	.	.	.	.	.	.	.	.	.	.
8En\L	.	8En\Lyy	.	2En\)	.	2B-\	.	.	2g/)	.	.	2dd-\)	.	.	8g\L	.	8b-\L	.	8dd-\L	.	2En\	2d-/	2B-\	.	2En\	.	2g/	2eX\	.	2dd-/	2b-\	.	2gg\	.	2ddd-\)	.
8E\	.	8E\yy	.	.	.	.	.	.	.	.	.	.	.	.	8g\	.	8b-\	.	8dd-\	.	.	.	.	.	.	.	.	.	.	.	.	.	.	.	.	.
8E\	.	8E\yy	.	.	.	.	.	.	.	.	.	.	.	.	8g\	.	8b-\	.	8dd-\	.	.	.	.	.	.	.	.	.	.	.	.	.	.	.	.	.
8E\J	.	8E\Jyy	.	.	.	.	.	.	.	.	.	.	.	.	8g\J	.	8b-\J	.	8dd-\J	.	.	.	.	.	.	.	.	.	.	.	.	.	.	.	.	.
=63	=63	=63	=63	=63	=63	=63	=63	=63	=63	=63	=63	=63	=63	=63	=63	=63	=63	=63	=63	=63	=63	=63	=63	=63	=63	=63	=63	=63	=63	=63	=63	=63	=63	=63	=63	=63
8F\L	.	8F\Lyy	.	2F\	-na	2A-\	.	.	2a-/	.	.	2cc\	-na	.	8a-\L	.	8a-/L	.	8cc\L	.	2F\	2c/	2A-\	.	2F\	.	2f/	2f\	.	2cc/	2a-\	.	2aa-\	.	2ccc\	.
8F\	.	8F\yy	.	.	.	.	.	.	.	.	.	.	.	.	8a-\	.	8a-/	.	8cc\	.	.	.	.	.	.	.	.	.	.	.	.	.	.	.	.	.
8F\	.	8F\yy	.	.	.	.	.	.	.	.	.	.	.	.	8a-\	.	8a-/	.	8cc\	.	.	.	.	.	.	.	.	.	.	.	.	.	.	.	.	.
8F\J	.	8F\Jyy	.	.	.	.	.	.	.	.	.	.	.	.	8a-\	.	8a-/J	.	8cc\J	.	.	.	.	.	.	.	.	.	.	.	.	.	.	.	.	.
8D-\L	.	8D-\Lyy	.	4.D-\	in	4.d-\	in	.	4.a-/	.	.	4.ff\	in	.	8a-\	.	8dd-/L 8f/	.	8ff\L	.	2D-\	2f\ 2A-\	2ryy	.	2D-\	.	2f/	2d-\	.	2dd-/	2a-\	.	2ff\	.	2fff\	.
8D-\	.	8D-\yy	.	.	.	.	.	.	.	.	.	.	.	.	8a-\	.	8dd-/ 8f/	.	8ff\	.	.	.	.	.	.	.	.	.	.	.	.	.	.	.	.	.
8D-\	.	8D-\yy	.	.	.	.	.	.	.	.	.	.	.	.	8a-\	.	8dd-/ 8f/	.	8ff\	.	.	.	.	.	.	.	.	.	.	.	.	.	.	.	.	.
8D-\J	.	8D-\Jyy	.	8D-\	ex-	8d-\	ex-	.	8a-/	.	.	8ff\	ex-	.	8a-\J	.	8dd-/J 8f/	.	8ff\J	.	.	.	.	.	.	.	.	.	.	.	.	.	.	.	.	.
=64	=64	=64	=64	=64	=64	=64	=64	=64	=64	=64	=64	=64	=64	=64	=64	=64	=64	=64	=64	=64	=64	=64	=64	=64	=64	=64	=64	=64	=64	=64	=64	=64	=64	=64	=64	=64
8E-\L	.	8E-\Lyy	.	4.E-\	-cael-	4.c\	-cael-	.	4.a-/	.	.	4.ee-\	-cael-	.	8a-\L	.	8cc/L 8e-/	.	8ee-\L	.	2E-\	2e-/	2c\	.	2E-\	.	2e-/	2e-\	.	2cc/	2a-\	.	2ee-\	.	2eee-\	.
8E-\	.	8E-\yy	.	.	.	.	.	.	.	.	.	.	.	.	8a-\	.	8cc/ 8e-/	.	8ee-\	.	.	.	.	.	.	.	.	.	.	.	.	.	.	.	.	.
8E-\	.	8E-\yy	.	.	.	.	.	.	.	.	.	.	.	.	8a-\	.	8cc/ 8e-/	.	8ee-\	.	.	.	.	.	.	.	.	.	.	.	.	.	.	.	.	.
8E-\	.	8E-\yy	.	8E-\	-sis	8c\	-sis	.	8a-/	.	.	8ee-\	-sis	.	8a-\J	.	8cc/J 8e-/	.	8ee-\J	.	.	.	.	.	.	.	.	.	.	.	.	.	.	.	.	.
8E-\	.	8E-\yy	.	2E-\	De-	2d-\	De-	.	2b-/	.	.	2gg\	De-	.	8g\L	.	8dd-/L 8e-/	.	8gg\L 8b-\	.	2E-\	2d-/	2B-\	.	2E-/ 2EE-/	.	2e-/	2e-\	.	2dd-/	2b-\	.	2gg\	.	2ggg\	.
8E-\	.	8E-\yy	.	.	.	.	.	.	.	.	.	.	.	.	8g\	.	8dd-/ 8e-/	.	8gg\ 8b-\	.	.	.	.	.	.	.	.	.	.	.	.	.	.	.	.	.
8E-\	.	8E-\yy	.	.	.	.	.	.	.	.	.	.	.	.	8g\	.	8dd-/ 8e-/	.	8gg\ 8b-\	.	.	.	.	.	.	.	.	.	.	.	.	.	.	.	.	.
8E-\J	.	8E-\Jyy	.	.	.	.	.	.	.	.	.	.	.	.	8g\J	.	8dd-/J 8e-/	.	8gg\J 8b-\	.	.	.	.	.	.	.	.	.	.	.	.	.	.	.	.	.
*Xtremolo	*	*Xtremolo	*	*	*	*	*	*	*	*	*	*	*	*	*Xtremolo	*	*Xtremolo	*	*Xtremolo	*	*	*	*	*	*	*	*	*	*	*	*	*	*	*	*	*
!!LO:PB:g=original
=65	=65	=65	=65	=65	=65	=65	=65	=65	=65	=65	=65	=65	=65	=65	=65	=65	=65	=65	=65	=65	=65	=65	=65	=65	=65	=65	=65	=65	=65	=65	=65	=65	=65	=65	=65	=65
4AA-/	.	4AA-/yy	.	4A-\	-o.	4c\	-o.	.	4a-/	o.	.	4aa-\	-o.	.	4a-\	.	4cc/ 4e-/	.	4aa-\ 4cc\	.	4AA-/	4c/	4A-\	.	4A-\ 4AA-\	.	4e-/	4e-\	.	4cc/	4a-\	.	4aa-\	.	4aaa-\	.
*	*	*	*	*	*	*	*	*	*	*	*	*	*	*	*	*	*	*	*	*	*	*	*	*	*	*	*	*	*	*Xtuplet	*	*	*	*	*	*
!LO:TX:t=P:problem=klamra łukowa z 3	!	!LO:TX:t=P:problem=klamra łukowa z 3	!	!	!	!	!	!	!	!	!	!	!	!	!LO:TX:t=P:problem=klamra łukowa z 3	!	!LO:TX:t=P:problem=klamra łukowa z 3	!	!LO:TX:t=P:problem=klamra łukowa z 3	!	!	!	!	!	!LO:TX:t=P:problem=klamra łukowa z 3	!	!	!	!	!	!	!	!LO:TX:t=P:problem=klamra łukowa z 3	!	!LO:TX:t=P:problem=klamra łukowa z 3	!
!LO:TUP:a	!	!LO:TUP:a	!	!	!	!	!	!	!	!	!	!	!	!	!LO:TUP:a	!	!LO:TUP:b	!	!LO:TUP:b	!	!	!	!	!	!LO:TUP:a	!	!	!	!	!	!	!	!LO:TUP:b	!	!LO:TUP:a	!
12A-\L	.	12A-\Lyy	.	4r	.	4r	.	.	4r	.	.	4r	.	.	12a-\L	.	12a-/L	.	12a-/L	.	4r	4r	4ryy	.	12A-\L	.	4r	4ryy	.	12a-\L	4ryy	.	12a-/L	.	12aa-\L	.
12G\	.	12G\yy	.	.	.	.	.	.	.	.	.	.	.	.	12g\	.	12g/	.	12g/	.	.	.	.	.	12G\	.	.	.	.	12g\	.	.	12g/	.	12gg\	.
12A-\J	.	12A-\Jyy	.	.	.	.	.	.	.	.	.	.	.	.	12a-\J	.	12a-/J	.	12a-/J	.	.	.	.	.	12A-\J	.	.	.	.	12a-\J	.	.	12a-/J	.	12aa-\J	.
!LO:TX:t=P:problem=klamra łukowa z 3	!	!LO:TX:t=P:problem=klamra łukowa z 3	!	!	!	!	!	!	!	!	!	!	!	!	!LO:TX:t=P:problem=klamra łukowa z 3	!	!LO:TX:t=P:problem=klamra łukowa z 3	!	!LO:TX:t=P:problem=klamra łukowa z 3	!	!	!	!	!	!LO:TX:t=P:problem=klamra łukowa z 3	!	!	!	!	!	!	!	!LO:TX:t=P:problem=klamra łukowa z 3	!	!LO:TX:t=P:problem=klamra łukowa z 3	!
!LO:TUP:a	!	!LO:TUP:a	!	!	!	!	!	!	!	!	!	!	!	!	!LO:TUP:a	!	!LO:TUP:a	!	!LO:TUP:a	!	!	!	!	!	!LO:TUP:a	!	!	!	!	!	!	!	!LO:TUP:a	!	!LO:TUP:a	!
12E-\L	.	12E-\Lyy	.	2r	.	2r	.	.	2r	.	.	2r	.	.	12e-\L	.	12cc\L	.	12cc\L	.	2r	2r	2ryy	.	12E-\L	.	2r	2ryy	.	12cc\L	2ryy	.	12cc\L	.	12ccc\L	.
!	!	!	!	!	!	!	!	!	!	!	!	!	!	!	!	!	!LO:SIC:v:o=12b-\	!	!	!	!	!	!	!	!	!	!	!	!	!	!	!	!	!	!	!
12Dn\	.	12Dn\yy	.	.	.	.	.	.	.	.	.	.	.	.	12dn\	.	12bn\	.	12bn\	.	.	.	.	.	12Dn\	.	.	.	.	12bX\	.	.	12bn\	.	12bbn\	.
12E-\J	.	12E-\Jyy	.	.	.	.	.	.	.	.	.	.	.	.	12e-\J	.	12cc\J	.	12cc\J	.	.	.	.	.	12E-\J	.	.	.	.	12cc\J	.	.	12cc\J	.	12ccc\J	.
!LO:TX:t=P:problem=klamra łukowa z 3	!	!LO:TX:t=P:problem=klamra łukowa z 3	!	!	!	!	!	!	!	!	!	!	!	!	!LO:TX:t=P:problem=klamra łukowa z 3	!	!LO:TX:t=P:problem=klamra łukowa z 3	!	!LO:TX:t=P:problem=klamra łukowa z 3	!	!	!	!	!	!LO:TX:t=P:problem=klamra łukowa z 3	!	!	!	!	!	!	!	!LO:TX:t=P:problem=klamra łukowa z 3	!	!LO:TX:t=P:problem=klamra łukowa z 3	!
!LO:TUP:b	!	!LO:TUP:b	!	!	!	!	!	!	!	!	!	!	!	!	!LO:TUP:b	!	!LO:TUP:a	!	!LO:TUP:a	!	!	!	!	!	!	!	!	!	!	!	!	!	!LO:TUP:a	!	!LO:TUP:a	!
12C/L	.	12C/Lyy	.	.	.	.	.	.	.	.	.	.	.	.	12c/L	.	12ee-\L	.	12ee-\L	.	.	.	.	.	12C/L	.	.	.	.	12ee-\L	.	.	12ee-\L	.	12eee-\L	.
!	!	!	!	!	!	!	!	!	!	!	!	!	!	!	!	!	!	!	!	!	!	!	!	!	!	!	!	!	!	!LO:SIC:v:o=12dd#\	!	!	!	!	!	!
12BB-/	.	12BB-/yy	.	.	.	.	.	.	.	.	.	.	.	.	12B-/	.	12ddn\	.	12ddn\	.	.	.	.	.	12BB-/	.	.	.	.	12ddn\	.	.	12ddn\	.	12dddn\	.
12C/J	.	12C/Jyy	.	.	.	.	.	.	.	.	.	.	.	.	12c/J	.	12ee-\J	.	12ee-\J	.	.	.	.	.	12C/J	.	.	.	.	12ee-\J	.	.	12ee-\J	.	12eee-\J	.
*	*	*	*	*	*	*	*	*	*	*	*	*	*	*	*	*	*	*	*	*	*	*v	*v	*	*	*	*v	*v	*	*	*	*	*	*	*	*
=66	=66	=66	=66	=66	=66	=66	=66	=66	=66	=66	=66	=66	=66	=66	=66	=66	=66	=66	=66	=66	=66	=66	=66	=66	=66	=66	=66	=66	=66	=66	=66	=66	=66	=66
4AA-/	.	4AA-/yy	.	1r	.	1r	.	.	1r	.	.	1r	.	.	4A-/	.	4aa-\	.	4aa-\	.	2r	2r	.	4AA-/	.	2r	.	4aa-/	2ryy	.	4aa-\	.	4aaa-\	.
4r	.	4ryy	.	.	.	.	.	.	.	.	.	.	.	.	4r	.	4r	.	4r	.	.	.	.	4r	.	.	.	4r	.	.	4r	.	4r	.
4A-\	.	4A-\yy	.	.	.	.	.	.	.	.	.	.	.	.	4e-/ 4A-/	.	4aa-\ 4cc\ 4e-\	.	4ccc\ 4ee-\ 4a-\	.	4A-\ 4AA-\	4e-\ 4c\	.	4c\ 4A-\	.	4e-/ 4E-/	.	4ee-/	4cc\	.	4aa-\	.	4ccc\	.
8.r	.	8.ryy	.	.	.	.	.	.	.	.	.	.	.	.	8.r	.	8.r	.	8.r	.	8.r	8.r	.	8.r	.	8.r	.	8.r	4ryy	.	8.r	.	8.r	.
16AA-/	.	16AA-/yy	.	.	.	.	.	.	.	.	.	.	.	.	16A-/	.	16A-/	.	16A-/	.	16AA-/	16A-\	.	16AA-/	.	16A-/	.	16a-/	.	.	16a-/	.	16a-/	.
*	*	*	*	*	*	*	*	*	*	*	*	*	*	*	*	*	*	*	*	*	*	*	*	*	*	*	*	*v	*v	*	*	*	*	*
=67	=67	=67	=67	=67	=67	=67	=67	=67	=67	=67	=67	=67	=67	=67	=67	=67	=67	=67	=67	=67	=67	=67	=67	=67	=67	=67	=67	=67	=67	=67	=67	=67	=67
1AA-/	.	1AA-/yy	.	1r	.	1r	.	.	1r	.	.	1r	.	.	1A-/	.	1A-/	.	1A-/	.	1AA-/	1A-\	.	1AA-/	.	1A-/	.	1a-/	.	1a-/	.	1a-/	.
==	==	==	==	==	==	==	==	==	==	==	==	==	==	==	==	==	==	==	==	==	==	==	==	==	==	==	==	==	==	==	==	==	==
*-	*-	*-	*-	*-	*-	*-	*-	*-	*-	*-	*-	*-	*-	*-	*-	*-	*-	*-	*-	*-	*-	*-	*-	*-	*-	*-	*-	*-	*-	*-	*-	*-	*-
!!!RDF**kern: > = above
!!!RDF**kern: < = below
!!!RDF**kern: | = vertical stroke
!!!EED: Andrzej Borzym
!!!EEV: 2021-06-13
!!!ENC: Anastazja Marusiak
!!!END: 2021-06-06
